;FLAVOR:RepRap
;TIME:8617
M190 S50.000000
M104 S235.000000
M109 S235.000000
M109 S235.000000
M109 S235.000000
G21 ;metric values
G90 ;absolute positioning
M82 ;set extruder to absolute mode
M107 ;start with the fan off
G28 X0 Y0 ;move X/Y to min endstops
G28 Z0 ;move Z to min endstops
G1 Z15.0 F9000 ;move the platform down 15mm
G92 E0 ;zero the extruded length
G1 F200 E3 ;extrude 3mm of feed stock
G92 E0 ;zero the extruded length again
G1 F9000
;Put printing message on LCD screen
M117 Printing...
;Generated with Cura_SteamEngine 2.1.0-
;LAYER_COUNT:59
;LAYER:0
M107
G1 F1500.000000 E-1.00000
G0 F3000.00000 X49.212 Y58.769 Z0.300
G0 X49.224 Y58.760
;TYPE:SKIRT
G1 F1500.000 E0.00000
G1 F1800.00000 X49.341 Y58.683 E0.00305
G1 X49.561 Y58.553 E0.00862
G1 X50.118 Y58.308 E0.02189
G1 X50.263 Y58.268 E0.02517
G1 X50.612 Y58.189 E0.03297
G1 X50.779 Y58.171 E0.03663
G1 X51.105 Y58.149 E0.04375
G1 X51.245 Y58.144 E0.04680
G1 X51.683 Y58.139 E0.05635
G1 X57.992 Y58.139 E0.19388
G1 X60.011 Y58.142 E0.23789
G1 X60.258 Y58.139 E0.24327
G1 X66.492 Y58.139 E0.37916
G1 X68.511 Y58.142 E0.42317
G1 X68.758 Y58.139 E0.42855
G1 X74.412 Y58.139 E0.55180
G1 X75.780 Y58.158 E0.58162
G1 X77.378 Y58.203 E0.61647
G1 X80.206 Y58.201 E0.67812
G1 X83.034 Y58.120 E0.73979
G1 X85.857 Y57.958 E0.80142
G1 X88.675 Y57.717 E0.86307
G1 X91.486 Y57.396 E0.92475
G1 X94.285 Y56.996 E0.98638
G1 X97.073 Y56.516 E1.04805
G1 X99.846 Y55.958 E1.10970
G1 X102.602 Y55.322 E1.17136
G1 X105.338 Y54.608 E1.23300
G1 X108.782 Y53.591 E1.31127
G1 X110.541 Y53.037 E1.35147
G1 X111.283 Y52.814 E1.36836
G1 X111.798 Y52.685 E1.37993
G1 X111.830 Y52.677 E1.38065
G1 X114.588 Y52.065 E1.44223
G1 X115.389 Y51.900 E1.46006
G1 X115.934 Y51.812 E1.47210
G1 X115.975 Y51.806 E1.47300
G1 X118.439 Y51.482 E1.52717
G1 X119.930 Y51.318 E1.55987
G1 X120.069 Y51.308 E1.56291
G1 X120.154 Y51.304 E1.56476
G1 X122.967 Y51.180 E1.62614
G1 X123.772 Y51.156 E1.64369
G1 X124.283 Y51.164 E1.65483
G1 X124.346 Y51.166 E1.65621
G1 X127.161 Y51.289 E1.71763
G1 X127.767 Y51.324 E1.73086
G1 X129.203 Y51.482 E1.76235
G1 X131.379 Y51.769 E1.81019
G1 X132.143 Y51.880 E1.82702
G1 X132.618 Y51.970 E1.83756
G1 X132.779 Y52.005 E1.84115
G1 X135.491 Y52.606 E1.90170
G1 X136.268 Y52.790 E1.91911
G1 X136.718 Y52.917 E1.92930
G1 X136.813 Y52.946 E1.93147
G1 X139.496 Y53.791 E1.99278
G1 X140.089 Y53.988 E2.00640
G1 X141.416 Y54.506 E2.03745
G1 X143.086 Y55.198 E2.07686
G1 X144.510 Y55.823 E2.11076
G1 X144.577 Y55.855 E2.11238
G1 X144.739 Y55.938 E2.11634
G1 X146.897 Y57.061 E2.16937
G1 X148.210 Y57.780 E2.20200
G1 X148.303 Y57.835 E2.20436
G1 X148.402 Y57.897 E2.20690
G1 X150.768 Y59.404 E2.26805
G1 X151.450 Y59.853 E2.28585
G1 X151.895 Y60.175 E2.29782
G1 X154.172 Y61.922 E2.36038
G1 X154.783 Y62.405 E2.37736
G1 X155.178 Y62.745 E2.38872
G1 X155.242 Y62.803 E2.39060
G1 X157.310 Y64.698 E2.45175
G1 X157.903 Y65.257 E2.46951
G1 X158.244 Y65.608 E2.48018
G1 X158.306 Y65.674 E2.48215
G1 X160.189 Y67.729 E2.54291
G1 X160.623 Y68.216 E2.55713
G1 X161.488 Y69.297 E2.58731
G1 X162.626 Y70.780 E2.62805
G1 X163.519 Y71.996 E2.66094
G1 X163.566 Y72.066 E2.66278
G1 X163.650 Y72.195 E2.66613
G1 X164.960 Y74.251 E2.71927
G1 X165.755 Y75.559 E2.75264
G1 X165.806 Y75.650 E2.75491
G1 X165.881 Y75.791 E2.75840
G1 X167.148 Y78.224 E2.81819
G1 X167.515 Y78.954 E2.83600
G1 X167.740 Y79.454 E2.84795
G1 X167.746 Y79.468 E2.84828
G1 X167.755 Y79.492 E2.84884
G1 X168.018 Y80.152 E2.86433
G1 X168.067 Y80.286 E2.86744
G1 X168.146 Y80.542 E2.87328
G1 X168.256 Y81.152 E2.88679
G1 X168.261 Y81.297 E2.88995
G1 X168.256 Y81.641 E2.89745
G1 X168.255 Y81.662 E2.89791
G1 X168.236 Y81.804 E2.90103
G1 X168.158 Y82.256 E2.91103
G1 X167.714 Y85.049 E2.97268
G1 X167.349 Y87.854 E3.03434
G1 X167.063 Y90.668 E3.09599
G1 X166.857 Y93.489 E3.15765
G1 X166.730 Y96.314 E3.21929
G1 X166.684 Y99.142 E3.28095
G1 X166.718 Y101.970 E3.34259
G1 X166.832 Y104.796 E3.40425
G1 X167.025 Y107.618 E3.46590
G1 X167.299 Y110.433 E3.52756
G1 X167.651 Y113.240 E3.58922
G1 X168.048 Y115.822 E3.64617
G1 X168.192 Y116.683 E3.66519
G1 X168.266 Y117.401 E3.68093
G1 X168.259 Y117.552 E3.68422
G1 X168.228 Y117.887 E3.69156
G1 X168.227 Y117.894 E3.69171
G1 X168.192 Y118.066 E3.69554
G1 X168.127 Y118.320 E3.70125
G1 X168.068 Y118.491 E3.70520
G1 X167.844 Y119.062 E3.71857
G1 X167.411 Y120.051 E3.74210
G1 X167.348 Y120.181 E3.74525
G1 X167.304 Y120.267 E3.74735
G1 X165.996 Y122.779 E3.80909
G1 X165.724 Y123.285 E3.82161
G1 X164.976 Y124.516 E3.85301
G1 X163.791 Y126.376 E3.90108
G1 X163.483 Y126.845 E3.91332
G1 X162.626 Y128.012 E3.94488
G1 X161.488 Y129.495 E3.98562
G1 X160.580 Y130.629 E4.01729
G1 X160.515 Y130.704 E4.01945
G1 X160.401 Y130.832 E4.02319
G1 X158.517 Y132.887 E4.08396
G1 X158.104 Y133.326 E4.09710
G1 X157.067 Y134.315 E4.12834
G1 X155.681 Y135.586 E4.16933
G1 X154.617 Y136.520 E4.20019
G1 X154.480 Y136.632 E4.20405
G1 X154.425 Y136.675 E4.20557
G1 X152.443 Y138.197 E4.26004
G1 X151.218 Y139.096 E4.29316
G1 X151.129 Y139.157 E4.29551
G1 X148.620 Y140.756 E4.36037
G1 X148.169 Y141.035 E4.37193
G1 X146.897 Y141.731 E4.40354
G1 X145.010 Y142.713 E4.44990
G1 X144.442 Y142.998 E4.46376
G1 X143.086 Y143.594 E4.49604
G1 X141.416 Y144.286 E4.53545
G1 X140.029 Y144.828 E4.56791
G1 X139.954 Y144.854 E4.56964
G1 X139.757 Y144.918 E4.57415
G1 X137.109 Y145.753 E4.63468
G1 X136.359 Y145.978 E4.65175
G1 X135.844 Y146.107 E4.66332
G1 X135.812 Y146.115 E4.66404
G1 X133.056 Y146.726 E4.72557
G1 X132.253 Y146.892 E4.74345
G1 X131.708 Y146.980 E4.75548
G1 X131.667 Y146.986 E4.75638
G1 X129.203 Y147.310 E4.81056
G1 X127.712 Y147.474 E4.84325
G1 X127.585 Y147.483 E4.84603
G1 X127.466 Y147.489 E4.84863
G1 X124.685 Y147.611 E4.90930
G1 X123.864 Y147.635 E4.92721
G1 X123.340 Y147.627 E4.93863
G1 X120.476 Y147.502 E5.00112
G1 X119.877 Y147.468 E5.01420
G1 X118.439 Y147.310 E5.04573
G1 X116.263 Y147.023 E5.09358
G1 X115.499 Y146.912 E5.11040
G1 X115.024 Y146.822 E5.12094
G1 X114.863 Y146.787 E5.12453
G1 X112.151 Y146.186 E5.18508
G1 X111.374 Y146.002 E5.20249
G1 X110.924 Y145.875 E5.21268
G1 X110.816 Y145.842 E5.21514
G1 X108.146 Y145.001 E5.27616
G1 X107.249 Y144.704 E5.29676
G1 X107.241 Y144.701 E5.29695
G1 X104.564 Y143.787 E5.35861
G1 X101.863 Y142.949 E5.42025
G1 X99.139 Y142.188 E5.48190
G1 X96.395 Y141.504 E5.54355
G1 X93.632 Y140.898 E5.60521
G1 X90.853 Y140.370 E5.66687
G1 X88.061 Y139.921 E5.72851
G1 X85.257 Y139.551 E5.79016
G1 X82.443 Y139.261 E5.85183
G1 X79.623 Y139.050 E5.91347
G1 X76.797 Y138.920 E5.97514
G1 X73.970 Y138.869 E6.03677
G1 X69.861 Y138.937 E6.12635
G1 X68.944 Y138.971 E6.14635
G1 X68.531 Y138.976 E6.15536
G1 X59.802 Y138.976 E6.34563
G1 X59.096 Y138.966 E6.36102
G1 X58.962 Y138.960 E6.36395
G1 X58.937 Y138.959 E6.36449
G1 X58.591 Y138.927 E6.37207
G1 X58.588 Y138.926 E6.37213
G1 X58.586 Y138.926 E6.37218
G1 X58.424 Y138.892 E6.37579
G1 X58.106 Y138.811 E6.38294
G1 X58.093 Y138.806 E6.38324
G1 X57.938 Y138.748 E6.38685
G1 X57.632 Y138.616 E6.39411
G1 X57.622 Y138.611 E6.39436
G1 X57.476 Y138.527 E6.39803
G1 X57.191 Y138.347 E6.40538
G1 X57.188 Y138.345 E6.40546
G1 X57.061 Y138.243 E6.40901
G1 X56.807 Y138.020 E6.41638
G1 X56.693 Y137.894 E6.42008
G1 X56.475 Y137.633 E6.42749
G1 X56.460 Y137.612 E6.42805
G1 X56.159 Y137.182 E6.43950
G1 X54.505 Y134.887 E6.50116
G1 X52.787 Y132.641 E6.56280
G1 X51.007 Y130.443 E6.62445
G1 X49.937 Y129.186 E6.66044
G1 X49.475 Y128.633 E6.67614
G1 X49.466 Y128.621 E6.67647
G1 X49.389 Y128.504 E6.67952
G1 X49.259 Y128.284 E6.68509
G1 X49.014 Y127.727 E6.69836
G1 X48.974 Y127.582 E6.70164
G1 X48.895 Y127.233 E6.70944
G1 X48.877 Y127.066 E6.71310
G1 X48.855 Y126.740 E6.72022
G1 X48.850 Y126.600 E6.72327
G1 X48.845 Y126.162 E6.73282
G1 X48.845 Y109.433 E7.09748
G1 X48.855 Y108.726 E7.11289
G1 X48.861 Y108.593 E7.11580
G1 X48.862 Y108.568 E7.11634
G1 X48.982 Y107.272 E7.14471
G1 X48.993 Y107.178 E7.14678
G1 X49.009 Y106.985 E7.15100
G1 X49.028 Y106.781 E7.15546
G1 X49.026 Y106.781 E7.15551
G1 X49.228 Y104.360 E7.20846
G1 X49.384 Y101.536 E7.27011
G1 X49.459 Y98.708 E7.33178
G1 X49.455 Y95.880 E7.39343
G1 X49.370 Y93.053 E7.45508
G1 X49.205 Y90.229 E7.51674
G1 X48.961 Y87.411 E7.57840
G1 X48.637 Y84.602 E7.64003
G1 X48.103 Y80.998 E7.71945
G1 X47.919 Y79.895 E7.74383
G1 X47.901 Y79.728 E7.74749
G1 X47.879 Y79.403 E7.75459
G1 X47.874 Y79.261 E7.75769
G1 X47.869 Y78.825 E7.76719
G1 X47.869 Y62.096 E8.13185
G1 X47.879 Y61.389 E8.14726
G1 X47.886 Y61.233 E8.15067
G1 X47.886 Y61.231 E8.15071
G1 X47.919 Y60.881 E8.15837
G1 X47.919 Y60.880 E8.15840
G1 X47.953 Y60.718 E8.16200
G1 X48.037 Y60.391 E8.16936
G1 X48.039 Y60.386 E8.16948
G1 X48.097 Y60.232 E8.17307
G1 X48.229 Y59.926 E8.18033
G1 X48.235 Y59.915 E8.18061
G1 X48.318 Y59.770 E8.18425
G1 X48.499 Y59.483 E8.19164
G1 X48.602 Y59.355 E8.19523
G1 X48.822 Y59.104 E8.20250
G1 X48.951 Y58.987 E8.20630
G1 X49.212 Y58.769 E8.21371
G1 X49.222 Y58.761 E8.21399
G1 X49.224 Y58.760 E8.21404
G1 F1500.00000 E7.21404
G0 F3000.00000 X49.591 Y80.917
G0 X50.800 Y80.849
G0 X52.686 Y107.264
G0 X52.845 Y109.476
G0 X52.873 Y109.504
G0 X52.915 Y109.546
G0 X52.845 Y109.476
;TYPE:WALL-INNER
G1 F1500.000 E8.21404
G1 F1800.00000 X58.345 Y109.476 E8.33393
G1 X58.345 Y112.476 E8.39932
G1 X62.845 Y112.476 E8.49741
G1 X62.845 Y109.476 E8.56281
G1 X65.345 Y109.476 E8.61730
G1 X65.345 Y112.476 E8.68270
G1 X69.845 Y112.476 E8.78079
G1 X69.845 Y109.476 E8.84618
G1 X75.345 Y109.476 E8.96607
G1 X75.345 Y119.673 E9.18835
G1 X75.004 Y119.765 E9.19604
G1 X73.826 Y117.726 E9.24738
G1 X70.364 Y117.726 E9.32284
G1 X68.630 Y120.726 E9.39837
G1 X70.364 Y123.726 E9.47390
G1 X73.826 Y123.726 E9.54937
G1 X75.004 Y121.687 E9.60070
G1 X75.345 Y121.779 E9.60840
G1 X75.345 Y125.976 E9.69988
G1 X68.345 Y125.976 E9.85247
G1 X68.345 Y134.976 E10.04865
G1 X59.845 Y134.976 E10.23394
G1 X59.845 Y125.976 E10.43012
G1 X52.845 Y125.976 E10.58271
G1 X52.845 Y122.644 E10.65534
G1 X53.186 Y122.552 E10.66304
G1 X53.864 Y123.726 E10.69259
G1 X57.326 Y123.726 E10.76805
G1 X59.060 Y120.726 E10.84359
G1 X57.326 Y117.726 E10.91912
G1 X53.864 Y117.726 E10.99458
G1 X53.186 Y118.900 E11.02413
G1 X52.845 Y118.808 E11.03183
G1 X52.845 Y109.476 E11.23525
G0 F3000.00000 X52.345 Y108.976
;TYPE:WALL-OUTER
G1 F1800.000 X58.845 Y108.976 E11.37694
G1 X58.845 Y111.976 E11.44233
G1 X62.345 Y111.976 E11.51863
G1 X62.345 Y109.476 E11.57312
G1 X60.845 Y109.476 E11.60582
G1 X60.845 Y108.976 E11.61672
G1 X62.345 Y108.976 E11.64942
G1 X67.345 Y108.976 E11.75841
G1 X67.345 Y109.476 E11.76931
G1 X65.845 Y109.476 E11.80200
G1 X65.845 Y111.976 E11.85650
G1 X69.345 Y111.976 E11.93279
G1 X69.345 Y108.976 E11.99819
G1 X75.845 Y108.976 E12.13987
G1 X75.845 Y126.476 E12.52134
G1 X68.845 Y126.476 E12.67393
G1 X68.845 Y135.476 E12.87011
G1 X59.345 Y135.476 E13.07719
G1 X59.345 Y126.476 E13.27337
G1 X52.345 Y126.476 E13.42596
G1 X52.345 Y120.981 E13.54574
G1 X52.345 Y120.726 E13.55130
G1 X52.345 Y120.471 E13.55686
G1 X52.345 Y108.976 E13.80742
G0 F3000.00000 X52.945 Y109.546
G0 X53.634 Y117.926
G0 X54.152 Y118.226
G1 F1800.000 X52.835 Y120.506 E13.86482
G1 X52.708 Y120.726 E13.86960
G1 X52.835 Y120.946 E13.87438
G1 X54.152 Y123.226 E13.93177
G1 X57.038 Y123.226 E13.99468
G1 X58.482 Y120.726 E14.05761
G1 X57.038 Y118.226 E14.12055
G1 X54.152 Y118.226 E14.18346
G0 F3000.00000 X53.634 Y117.925
G0 X53.844 Y117.692
G0 X57.345 Y117.692
G0 X68.690 Y120.424
G0 X69.208 Y120.726
G1 F1800.000 X70.652 Y123.226 E14.24639
G1 X73.538 Y123.226 E14.30930
G1 X74.982 Y120.726 E14.37223
G1 X73.538 Y118.226 E14.43516
G1 X70.652 Y118.226 E14.49807
G1 X69.208 Y120.726 E14.56100
G0 F3000.00000 X68.657 Y120.276
;TYPE:SKIN
G1 F1800.000 X61.056 Y112.675 E14.79532
G0 X60.968 Y112.587
G0 F3000.000 X61.763 Y112.675
G1 F1800.000 X68.916 Y119.828 E15.01583
G0 X69.004 Y119.916
G0 F3000.000 X69.176 Y119.380
G1 F1800.000 X62.470 Y112.675 E15.22254
G0 X62.382 Y112.587
G0 F3000.000 X63.044 Y112.542
G1 F1800.000 X69.435 Y118.932 E15.41954
G0 X69.523 Y119.020
G0 F3000.000 X69.694 Y118.484
G1 F1800.000 X63.044 Y111.835 E15.62452
G0 X62.956 Y111.747
G0 F3000.000 X63.044 Y111.128
G1 F1800.000 X69.953 Y118.036 E15.83749
G0 X70.041 Y118.124
G0 F3000.000 X70.212 Y117.588
G1 F1800.000 X65.299 Y112.675 E15.98895
G0 X65.211 Y112.587
G0 F3000.000 X65.145 Y112.521
G1 F1800.000 X63.044 Y110.421 E16.05370
G0 X62.956 Y110.333
G0 F3000.000 X63.044 Y109.713
G1 F1800.000 X65.145 Y111.814 E16.11847
G0 X65.233 Y111.902
G0 F3000.000 X65.145 Y111.106
G1 F1800.000 X63.713 Y109.675 E16.16260
G0 X63.625 Y109.587
G0 F3000.000 X64.420 Y109.675
G1 F1800.000 X65.145 Y110.399 E16.18493
G0 X65.233 Y110.487
G0 F3000.000 X65.317 Y112.504
G0 X66.006 Y112.675
G1 F1800.000 X70.855 Y117.524 E16.33441
G0 X70.943 Y117.612
G0 F3000.000 X71.562 Y117.524
G1 F1800.000 X66.713 Y112.675 E16.48389
G0 X66.625 Y112.587
G0 F3000.000 X67.420 Y112.675
G1 F1800.000 X72.269 Y117.524 E16.63337
G0 X72.357 Y117.612
G0 F3000.000 X72.976 Y117.524
G1 F1800.000 X68.127 Y112.675 E16.78285
G0 X68.039 Y112.587
G0 F3000.000 X68.834 Y112.675
G1 F1800.000 X73.684 Y117.524 E16.93235
G0 X73.772 Y117.612
G0 F3000.000 X74.290 Y118.131
G1 F1800.000 X75.144 Y118.985 E16.95868
G0 X75.232 Y119.073
G0 F3000.000 X75.144 Y118.278
G1 F1800.000 X69.541 Y112.675 E17.13140
G0 X69.453 Y112.587
G0 F3000.000 X70.044 Y112.470
G1 F1800.000 X75.144 Y117.571 E17.28863
G0 X75.232 Y117.659
G0 F3000.000 X75.144 Y116.864
G1 F1800.000 X70.044 Y111.763 E17.44587
G0 X69.956 Y111.675
G0 F3000.000 X70.044 Y111.056
G1 F1800.000 X75.144 Y116.157 E17.60310
G0 X75.232 Y116.245
G0 F3000.000 X75.144 Y115.450
G1 F1800.000 X70.044 Y110.349 E17.76033
G0 X69.956 Y110.261
G0 F3000.000 X70.077 Y109.675
G1 F1800.000 X75.144 Y114.742 E17.91654
G0 X75.232 Y114.830
G0 F3000.000 X75.144 Y114.035
G1 F1800.000 X70.784 Y109.675 E18.05094
G0 X70.696 Y109.587
G0 F3000.000 X71.492 Y109.675
G1 F1800.000 X75.144 Y113.328 E18.16354
G0 X75.232 Y113.416
G0 F3000.000 X75.144 Y112.621
G1 F1800.000 X72.199 Y109.675 E18.25434
G0 X72.111 Y109.587
G0 F3000.000 X72.906 Y109.675
G1 F1800.000 X75.144 Y111.914 E18.32335
G0 X75.232 Y112.002
G0 F3000.000 X75.144 Y111.207
G1 F1800.000 X73.613 Y109.675 E18.37056
G0 X73.525 Y109.587
G0 F3000.000 X74.320 Y109.675
G1 F1800.000 X75.144 Y110.500 E18.39597
G0 X75.232 Y110.588
G0 F3000.000 X75.144 Y109.793
G1 F1800.000 X75.027 Y109.675 E18.39960
G0 F3000.00000 X68.590 Y120.726
G0 X70.345 Y123.760
G0 X73.846 Y123.760
G0 X74.896 Y122.272
G0 X75.020 Y122.396
G1 F3325.942 X74.890 Y122.974 E18.41124
G0 F3000.00000 X75.144 Y123.935
G1 F1800.000 X74.378 Y123.168 E18.43487
G0 X74.290 Y123.080
G0 F3000.000 X74.118 Y123.616
G1 F1800.000 X75.144 Y124.642 E18.46650
G0 X75.232 Y124.730
G0 F3000.000 X75.144 Y125.349
G1 F1800.000 X73.720 Y123.925 E18.51040
G0 X73.632 Y123.837
G0 F3000.000 X73.013 Y123.925
G1 F1800.000 X74.863 Y125.775 E18.56743
G0 X74.951 Y125.863
G0 F3000.000 X74.156 Y125.775
G1 F1800.000 X72.306 Y123.925 E18.62446
G0 X72.218 Y123.837
G0 F3000.000 X71.599 Y123.925
G1 F1800.000 X73.449 Y125.775 E18.68149
G0 X73.537 Y125.863
G0 F3000.000 X72.742 Y125.775
G1 F1800.000 X70.892 Y123.925 E18.73852
G0 X70.804 Y123.837
G0 F3000.000 X70.620 Y125.775
G1 F1800.000 X54.521 Y109.675 E19.23482
G0 X54.433 Y109.587
G0 F3000.000 X53.814 Y109.675
G1 F1800.000 X69.913 Y125.775 E19.73112
G0 X70.001 Y125.863
G0 F3000.000 X69.206 Y125.775
G1 F1800.000 X53.107 Y109.675 E20.22742
G0 X53.019 Y109.587
G0 F3000.000 X53.045 Y110.320
G1 F1800.000 X68.499 Y125.775 E20.70384
G0 X68.587 Y125.863
G0 F3000.000 X68.144 Y126.127
G1 F1800.000 X53.045 Y111.027 E21.16932
G0 X52.957 Y110.939
G0 F3000.000 X53.045 Y111.734
G1 F1800.000 X68.144 Y126.834 E21.63479
G0 X68.232 Y126.922
G0 F3000.000 X68.144 Y127.541
G1 F1800.000 X53.045 Y112.441 E22.10026
G0 X52.957 Y112.353
G0 F3000.000 X53.045 Y113.149
G1 F1800.000 X57.421 Y117.525 E22.23516
G0 X57.509 Y117.613
G0 F3000.000 X57.467 Y117.572
G1 F1800.000 X68.144 Y128.248 E22.56429
G0 X68.232 Y128.336
G0 F3000.000 X68.144 Y128.955
G1 F1800.000 X58.437 Y119.248 E22.86353
G0 X58.349 Y119.160
G0 F3000.000 X59.260 Y120.778
G1 F1800.000 X68.144 Y129.662 E23.13740
G0 X68.232 Y129.750
