;FLAVOR:RepRap
;TIME:1034
M190 S50.000000
M104 S235.000000
M109 S235.000000
G21 ;metric values
G90 ;absolute positioning
M82 ;set extruder to absolute mode
M107 ;start with the fan off
G28 X0 Y0 ;move X/Y to min endstops
G28 Z0 ;move Z to min endstops
G1 Z15.0 F9000 ;move the platform down 15mm
G92 E0 ;zero the extruded length
G1 F200 E3 ;extrude 3mm of feed stock
G92 E0 ;zero the extruded length again
G1 F9000
;Put printing message on LCD screen
M117 Printing...
;Generated with Cura_SteamEngine 2.1.0-
;LAYER_COUNT:59
;LAYER:0
M107
G0 F3000.000000 X83.356 Y79.563 Z0.300
G0 X82.420 Y81.250
;TYPE:SKIRT
G1 F1800.000 X82.448 Y81.159 E0.00202
G1 X82.488 Y81.044 E0.00460
G1 X82.616 Y80.701 E0.01237
G1 X82.647 Y80.636 E0.01390
G1 X82.720 Y80.491 E0.01735
G1 X82.872 Y80.210 E0.02413
G1 X82.887 Y80.183 E0.02478
G1 X82.890 Y80.178 E0.02490
G1 X82.928 Y80.120 E0.02638
G1 X82.997 Y80.021 E0.02894
G1 X83.225 Y79.709 E0.03714
G1 X83.230 Y79.703 E0.03730
G1 X83.284 Y79.641 E0.03905
G1 X83.356 Y79.563 E0.04130
G1 X83.625 Y79.285 E0.04951
G1 X83.692 Y79.227 E0.05139
G1 X83.769 Y79.164 E0.05350
G1 X84.069 Y78.929 E0.06159
G1 X84.082 Y78.919 E0.06194
G1 X84.164 Y78.866 E0.06401
G1 X84.247 Y78.815 E0.06608
G1 X84.564 Y78.631 E0.07385
G1 X84.587 Y78.619 E0.07440
G1 X84.683 Y78.573 E0.07666
G1 X84.751 Y78.543 E0.07824
G1 X85.094 Y78.402 E0.08611
G1 X85.105 Y78.398 E0.08636
G1 X85.211 Y78.365 E0.08871
G1 X85.285 Y78.343 E0.09035
G1 X85.664 Y78.245 E0.09866
G1 X85.690 Y78.241 E0.09922
G1 X86.058 Y78.199 E0.10708
G1 X86.300 Y78.179 E0.11223
G1 X87.570 Y78.152 E0.13919
G1 X103.793 Y78.152 E0.48345
G1 X104.183 Y78.158 E0.49173
G1 X105.067 Y78.200 E0.51051
G1 X105.079 Y78.202 E0.51076
G1 X105.091 Y78.203 E0.51102
G1 X105.198 Y78.222 E0.51333
G1 X105.255 Y78.233 E0.51456
G1 X105.648 Y78.320 E0.52310
G1 X105.743 Y78.350 E0.52521
G1 X105.858 Y78.390 E0.52780
G1 X106.200 Y78.518 E0.53555
G1 X106.266 Y78.549 E0.53709
G1 X106.411 Y78.622 E0.54054
G1 X106.692 Y78.774 E0.54732
G1 X106.719 Y78.789 E0.54797
G1 X106.724 Y78.792 E0.54810
G1 X106.776 Y78.826 E0.54942
G1 X106.881 Y78.899 E0.55213
G1 X107.192 Y79.126 E0.56030
G1 X107.195 Y79.129 E0.56039
G1 X107.245 Y79.172 E0.56179
G1 X109.404 Y80.999 E0.62181
G1 X111.614 Y82.764 E0.68183
G1 X113.872 Y84.466 E0.74183
G1 X115.754 Y85.806 E0.79086
G1 X116.191 Y86.125 E0.80234
G1 X116.261 Y86.186 E0.80431
G1 X116.337 Y86.256 E0.80650
G1 X116.616 Y86.527 E0.81476
G1 X116.670 Y86.588 E0.81648
G1 X116.738 Y86.671 E0.81876
G1 X116.970 Y86.967 E0.82674
G1 X116.983 Y86.984 E0.82720
G1 X117.036 Y87.066 E0.82927
G1 X117.079 Y87.135 E0.83099
G1 X117.271 Y87.466 E0.83911
G1 X117.281 Y87.485 E0.83957
G1 X117.329 Y87.585 E0.84192
G1 X117.359 Y87.653 E0.84350
G1 X117.500 Y87.997 E0.85139
G1 X117.502 Y88.002 E0.85150
G1 X117.530 Y88.088 E0.85342
G1 X117.559 Y88.187 E0.85561
G1 X117.656 Y88.564 E0.86387
G1 X117.661 Y88.592 E0.86448
G1 X117.703 Y88.960 E0.87234
G1 X117.723 Y89.202 E0.87749
G1 X117.750 Y90.472 E0.90445
G1 X117.750 Y98.695 E1.07894
G1 X117.744 Y99.085 E1.08722
G1 X117.702 Y99.969 E1.10600
G1 X117.700 Y99.981 E1.10626
G1 X117.700 Y99.983 E1.10630
G1 X117.680 Y100.100 E1.10882
G1 X117.669 Y100.157 E1.11005
G1 X117.582 Y100.550 E1.11859
G1 X117.555 Y100.634 E1.12047
G1 X117.512 Y100.760 E1.12329
G1 X117.384 Y101.102 E1.13104
G1 X117.353 Y101.168 E1.13259
G1 X117.280 Y101.313 E1.13603
G1 X117.128 Y101.594 E1.14281
G1 X117.114 Y101.619 E1.14342
G1 X117.072 Y101.684 E1.14506
G1 X117.003 Y101.783 E1.14762
G1 X116.777 Y102.093 E1.15576
G1 X116.716 Y102.163 E1.15773
G1 X116.654 Y102.230 E1.15967
G1 X116.375 Y102.518 E1.16818
G1 X116.314 Y102.572 E1.16991
G1 X116.231 Y102.640 E1.17219
G1 X115.927 Y102.879 E1.18039
G1 X115.791 Y102.973 E1.18390
G1 X113.492 Y104.620 E1.24391
G1 X111.241 Y106.332 E1.30393
G1 X109.039 Y108.107 E1.36395
G1 X107.408 Y109.493 E1.40937
G1 X107.231 Y109.639 E1.41423
G1 X106.931 Y109.874 E1.42232
G1 X106.918 Y109.884 E1.42267
G1 X106.836 Y109.937 E1.42474
G1 X106.767 Y109.980 E1.42647
G1 X106.436 Y110.172 E1.43459
G1 X106.423 Y110.179 E1.43490
G1 X106.317 Y110.230 E1.43740
G1 X106.249 Y110.260 E1.43897
G1 X105.906 Y110.401 E1.44684
G1 X105.902 Y110.402 E1.44693
G1 X105.898 Y110.404 E1.44703
G1 X105.789 Y110.438 E1.44945
G1 X105.715 Y110.460 E1.45109
G1 X105.336 Y110.558 E1.45939
G1 X105.310 Y110.562 E1.45995
G1 X104.942 Y110.604 E1.46781
G1 X104.700 Y110.624 E1.47297
G1 X103.430 Y110.651 E1.49992
G1 X87.207 Y110.651 E1.84418
G1 X86.817 Y110.645 E1.85246
G1 X85.933 Y110.603 E1.87124
G1 X85.921 Y110.601 E1.87150
G1 X85.909 Y110.600 E1.87176
G1 X85.802 Y110.581 E1.87406
G1 X85.745 Y110.570 E1.87529
G1 X85.352 Y110.483 E1.88384
G1 X85.255 Y110.452 E1.88600
G1 X85.142 Y110.413 E1.88853
G1 X84.800 Y110.285 E1.89628
G1 X84.723 Y110.249 E1.89809
G1 X84.585 Y110.179 E1.90137
G1 X84.308 Y110.029 E1.90805
G1 X84.281 Y110.014 E1.90871
G1 X84.276 Y110.011 E1.90883
G1 X84.209 Y109.967 E1.91053
G1 X84.110 Y109.898 E1.91309
G1 X83.809 Y109.678 E1.92101
G1 X83.739 Y109.617 E1.92298
G1 X83.661 Y109.545 E1.92523
G1 X83.384 Y109.276 E1.93342
G1 X83.330 Y109.215 E1.93515
G1 X83.255 Y109.124 E1.93765
G1 X83.027 Y108.832 E1.94552
G1 X83.012 Y108.811 E1.94606
G1 X82.964 Y108.737 E1.94794
G1 X82.914 Y108.656 E1.94996
G1 X82.729 Y108.337 E1.95778
G1 X82.719 Y108.318 E1.95824
G1 X82.669 Y108.213 E1.96070
G1 X82.641 Y108.150 E1.96217
G1 X82.500 Y107.806 E1.97006
G1 X82.498 Y107.801 E1.97017
G1 X82.496 Y107.795 E1.97031
G1 X82.458 Y107.675 E1.97298
G1 X82.441 Y107.616 E1.97428
G1 X82.343 Y107.237 E1.98259
G1 X82.339 Y107.211 E1.98314
G1 X82.297 Y106.843 E1.99100
G1 X82.277 Y106.601 E1.99616
G1 X82.250 Y105.331 E2.02311
G1 X82.250 Y99.417 E2.14861
G1 X82.255 Y98.214 E2.17414
G1 X82.250 Y97.495 E2.18940
G1 X82.250 Y91.036 E2.32646
G1 X82.255 Y89.714 E2.35452
G1 X82.250 Y88.995 E2.36978
G1 X82.250 Y83.109 E2.49468
G1 X82.256 Y82.719 E2.50296
G1 X82.298 Y81.834 E2.52176
G1 X82.300 Y81.821 E2.52204
G1 X82.301 Y81.811 E2.52225
G1 X82.320 Y81.704 E2.52456
G1 X82.331 Y81.647 E2.52579
G1 X82.419 Y81.253 E2.53436
G1 X82.419 Y81.250 E2.53442
G1 X82.420 Y81.250 E2.53444
G0 F3000.00000 X82.881 Y81.480
G1 F1800.000 X82.911 Y81.354 E2.53719
G1 X83.041 Y80.997 E2.54525
G1 X83.100 Y80.848 E2.54865
G1 X83.317 Y80.446 E2.55835
G1 X83.355 Y80.380 E2.55996
G1 X83.623 Y80.022 E2.56945
G1 X83.703 Y79.922 E2.57217
G1 X83.955 Y79.671 E2.57972
G1 X84.090 Y79.544 E2.58365
G1 X84.396 Y79.318 E2.59172
G1 X84.514 Y79.235 E2.59479
G1 X84.916 Y79.020 E2.60446
G1 X85.016 Y78.970 E2.60683
G1 X85.368 Y78.844 E2.61477
G1 X85.518 Y78.795 E2.61811
G1 X85.927 Y78.712 E2.62697
G1 X85.965 Y78.706 E2.62779
G1 X86.549 Y78.661 E2.64022
G1 X87.222 Y78.652 E2.65450
G1 X103.793 Y78.652 E3.00615
G1 X104.499 Y78.662 E3.02113
G1 X104.675 Y78.669 E3.02487
G1 X105.014 Y78.699 E3.03209
G1 X105.421 Y78.783 E3.04091
G1 X105.548 Y78.813 E3.04368
G1 X105.898 Y78.940 E3.05158
G1 X106.054 Y79.002 E3.05514
G1 X106.448 Y79.214 E3.06464
G1 X106.522 Y79.257 E3.06645
G1 X106.862 Y79.511 E3.07546
G1 X106.985 Y79.609 E3.07880
G1 X107.923 Y80.400 E3.10483
G1 X108.082 Y80.538 E3.10930
G1 X110.267 Y82.334 E3.16932
G1 X112.502 Y84.067 E3.22934
G1 X115.396 Y86.166 E3.30520
G1 X115.453 Y86.206 E3.30668
G1 X115.870 Y86.517 E3.31772
G1 X115.979 Y86.604 E3.32068
G1 X116.231 Y86.857 E3.32826
G1 X116.358 Y86.992 E3.33219
G1 X116.584 Y87.298 E3.34026
G1 X116.667 Y87.416 E3.34332
G1 X116.882 Y87.818 E3.35300
G1 X116.932 Y87.918 E3.35537
G1 X117.058 Y88.270 E3.36330
G1 X117.107 Y88.420 E3.36665
G1 X117.190 Y88.829 E3.37551
G1 X117.196 Y88.867 E3.37632
G1 X117.241 Y89.451 E3.38875
G1 X117.250 Y90.124 E3.40304
G1 X117.250 Y98.695 E3.58492
G1 X117.240 Y99.401 E3.59990
G1 X117.233 Y99.577 E3.60364
G1 X117.203 Y99.916 E3.61086
G1 X117.119 Y100.323 E3.61968
G1 X117.089 Y100.450 E3.62245
G1 X116.966 Y100.790 E3.63012
G1 X116.900 Y100.956 E3.63391
G1 X116.693 Y101.340 E3.64317
G1 X116.645 Y101.424 E3.64522
G1 X116.385 Y101.772 E3.65444
G1 X116.298 Y101.881 E3.65740
G1 X116.045 Y102.133 E3.66498
G1 X115.910 Y102.260 E3.66891
G1 X115.601 Y102.489 E3.67707
G1 X115.559 Y102.518 E3.67816
G1 X113.260 Y104.165 E3.73817
G1 X111.008 Y105.877 E3.79820
G1 X108.806 Y107.651 E3.85821
G1 X107.708 Y108.593 E3.88891
G1 X106.924 Y109.248 E3.91059
G1 X106.604 Y109.485 E3.91904
G1 X106.486 Y109.568 E3.92210
G1 X106.084 Y109.783 E3.93177
G1 X105.984 Y109.833 E3.93414
G1 X105.632 Y109.959 E3.94208
G1 X105.482 Y110.008 E3.94543
G1 X105.073 Y110.091 E3.95428
G1 X105.035 Y110.097 E3.95510
G1 X104.451 Y110.142 E3.96753
G1 X103.778 Y110.151 E3.98181
G1 X87.207 Y110.151 E4.33346
G1 X86.501 Y110.141 E4.34844
G1 X86.325 Y110.134 E4.35218
G1 X85.986 Y110.104 E4.35940
G1 X85.579 Y110.020 E4.36822
G1 X85.452 Y109.990 E4.37099
G1 X85.099 Y109.862 E4.37896
G1 X84.946 Y109.801 E4.38245
G1 X84.547 Y109.586 E4.39207
G1 X84.478 Y109.546 E4.39376
G1 X84.130 Y109.286 E4.40298
G1 X84.021 Y109.199 E4.40594
G1 X83.769 Y108.946 E4.41352
G1 X83.642 Y108.811 E4.41745
G1 X83.408 Y108.495 E4.42580
G1 X83.333 Y108.387 E4.42859
G1 X83.118 Y107.985 E4.43826
G1 X83.068 Y107.885 E4.44063
G1 X82.942 Y107.533 E4.44857
G1 X82.893 Y107.383 E4.45192
G1 X82.810 Y106.974 E4.46077
G1 X82.804 Y106.936 E4.46159
G1 X82.759 Y106.352 E4.47402
G1 X82.750 Y105.673 E4.48843
G1 X82.750 Y100.079 E4.60714
G1 X82.751 Y100.013 E4.60854
G1 X82.751 Y97.346 E4.66513
G1 X82.750 Y97.270 E4.66675
G1 X82.750 Y91.587 E4.78734
G1 X82.751 Y91.513 E4.78891
G1 X82.751 Y88.846 E4.84551
G1 X82.750 Y88.770 E4.84712
G1 X82.750 Y83.109 E4.96725
G1 X82.760 Y82.402 E4.98226
G1 X82.767 Y82.227 E4.98597
G1 X82.797 Y81.888 E4.99320
G1 X82.881 Y81.480 E5.00204
G0 F3000.00000 X83.300 Y81.894
G1 F1800.000 X83.300 Y81.893 E5.00206
G1 X83.334 Y81.731 E5.00557
G1 X83.415 Y81.413 E5.01253
G1 X83.420 Y81.399 E5.01285
G1 X83.478 Y81.245 E5.01634
G1 X83.610 Y80.939 E5.02341
G1 X83.616 Y80.928 E5.02368
G1 X83.699 Y80.783 E5.02722
G1 X83.880 Y80.496 E5.03442
G1 X83.983 Y80.368 E5.03791
G1 X84.203 Y80.117 E5.04499
G1 X84.332 Y80.000 E5.04869
G1 X84.593 Y79.782 E5.05591
G1 X84.607 Y79.772 E5.05627
G1 X84.722 Y79.696 E5.05920
G1 X84.942 Y79.566 E5.06462
G1 X85.499 Y79.321 E5.07753
G1 X85.644 Y79.281 E5.08072
G1 X85.993 Y79.202 E5.08832
G1 X86.160 Y79.184 E5.09188
G1 X86.486 Y79.162 E5.09881
G1 X86.626 Y79.157 E5.10179
G1 X87.064 Y79.152 E5.11108
G1 X103.793 Y79.152 E5.46608
G1 X104.499 Y79.162 E5.48107
G1 X104.633 Y79.168 E5.48391
G1 X104.658 Y79.169 E5.48444
G1 X105.004 Y79.201 E5.49182
G1 X105.007 Y79.202 E5.49188
G1 X105.009 Y79.202 E5.49193
G1 X105.171 Y79.236 E5.49544
G1 X105.489 Y79.317 E5.50240
G1 X105.502 Y79.322 E5.50270
G1 X105.657 Y79.380 E5.50621
G1 X105.963 Y79.512 E5.51328
G1 X105.973 Y79.517 E5.51352
G1 X106.119 Y79.601 E5.51709
G1 X106.398 Y79.777 E5.52409
G1 X106.404 Y79.781 E5.52425
G1 X106.657 Y79.984 E5.53113
G1 X106.678 Y80.001 E5.53170
G1 X108.449 Y81.509 E5.58106
G1 X110.654 Y83.281 E5.64109
G1 X112.908 Y84.990 E5.70112
G1 X114.251 Y85.937 E5.73599
G1 X114.241 Y85.951 E5.73636
G1 X115.405 Y86.781 E5.76669
G1 X115.534 Y86.885 E5.77021
G1 X115.785 Y87.105 E5.77729
G1 X115.902 Y87.234 E5.78099
G1 X116.115 Y87.489 E5.78804
G1 X116.128 Y87.506 E5.78849
G1 X116.205 Y87.623 E5.79146
G1 X116.336 Y87.844 E5.79692
G1 X116.581 Y88.401 E5.80983
G1 X116.621 Y88.546 E5.81302
G1 X116.699 Y88.889 E5.82049
G1 X116.718 Y89.062 E5.82418
G1 X116.740 Y89.388 E5.83111
G1 X116.745 Y89.528 E5.83409
G1 X116.750 Y89.966 E5.84338
G1 X116.750 Y98.695 E6.02862
G1 X116.740 Y99.401 E6.04360
G1 X116.734 Y99.535 E6.04645
G1 X116.733 Y99.558 E6.04693
G1 X116.701 Y99.906 E6.05435
G1 X116.700 Y99.909 E6.05442
G1 X116.700 Y99.910 E6.05444
G1 X116.666 Y100.073 E6.05797
G1 X116.585 Y100.391 E6.06494
G1 X116.580 Y100.404 E6.06523
G1 X116.522 Y100.559 E6.06874
G1 X116.390 Y100.865 E6.07581
G1 X116.385 Y100.875 E6.07605
G1 X116.301 Y101.021 E6.07963
G1 X116.119 Y101.309 E6.08686
G1 X116.121 Y101.307 E6.08692
G1 X116.017 Y101.436 E6.09043
G1 X115.797 Y101.687 E6.09752
G1 X115.796 Y101.687 E6.09754
G1 X115.668 Y101.804 E6.10122
G1 X115.407 Y102.022 E6.10843
G1 X115.397 Y102.030 E6.10870
G1 X114.957 Y102.337 E6.12009
G1 X112.662 Y103.991 E6.18012
G1 X110.415 Y105.708 E6.24013
G1 X108.218 Y107.489 E6.30015
G1 X107.009 Y108.519 E6.33385
G1 X106.407 Y109.021 E6.35049
G1 X106.400 Y109.026 E6.35067
G1 X106.396 Y109.029 E6.35077
G1 X106.282 Y109.104 E6.35367
G1 X106.058 Y109.237 E6.35920
G1 X105.501 Y109.482 E6.37211
G1 X105.356 Y109.522 E6.37530
G1 X105.007 Y109.601 E6.38290
G1 X104.840 Y109.619 E6.38646
G1 X104.514 Y109.641 E6.39339
G1 X104.374 Y109.646 E6.39637
G1 X103.936 Y109.651 E6.40566
G1 X87.207 Y109.651 E6.76066
G1 X86.501 Y109.641 E6.77565
G1 X86.367 Y109.635 E6.77849
G1 X86.342 Y109.634 E6.77902
G1 X85.996 Y109.602 E6.78640
G1 X85.992 Y109.601 E6.78648
G1 X85.829 Y109.567 E6.79002
G1 X85.511 Y109.486 E6.79698
G1 X85.498 Y109.481 E6.79728
G1 X85.343 Y109.423 E6.80079
G1 X85.037 Y109.291 E6.80786
G1 X85.027 Y109.286 E6.80810
G1 X84.881 Y109.202 E6.81167
G1 X84.596 Y109.022 E6.81883
G1 X84.593 Y109.020 E6.81890
G1 X84.466 Y108.918 E6.82236
G1 X84.212 Y108.695 E6.82953
G1 X84.089 Y108.559 E6.83342
G1 X83.880 Y108.308 E6.84035
G1 X83.871 Y108.296 E6.84067
G1 X83.794 Y108.178 E6.84366
G1 X83.664 Y107.959 E6.84907
G1 X83.419 Y107.402 E6.86198
G1 X83.379 Y107.257 E6.86517
G1 X83.300 Y106.908 E6.87276
G1 X83.282 Y106.741 E6.87633
G1 X83.260 Y106.415 E6.88326
G1 X83.255 Y106.275 E6.88624
G1 X83.250 Y105.837 E6.89553
G1 X83.250 Y99.402 E7.03209
G1 X83.253 Y97.510 E7.07224
G1 X83.250 Y97.263 E7.07748
G1 X83.250 Y90.902 E7.21246
G1 X83.253 Y89.010 E7.25261
G1 X83.250 Y88.763 E7.25785
G1 X83.250 Y83.109 E7.37783
G1 X83.260 Y82.402 E7.39284
G1 X83.267 Y82.246 E7.39615
G1 X83.267 Y82.244 E7.39620
G1 X83.300 Y81.894 E7.40366
G1 F1500.00000 E6.40366
G0 F3000.00000 X84.962 Y82.422
G0 X87.250 Y83.152
G0 X87.278 Y83.180
G0 X87.320 Y83.222
G0 X87.250 Y83.152
;TYPE:WALL-INNER
G1 F1500.000 E7.40366
G1 F1800.00000 X103.750 Y83.152 E7.75380
G1 X103.750 Y90.152 E7.90234
G1 X112.750 Y90.152 E8.09333
G1 X112.750 Y98.652 E8.27370
G1 X103.750 Y98.652 E8.46469
G1 X103.750 Y105.651 E8.61321
G1 X87.250 Y105.651 E8.96335
G1 X87.250 Y100.152 E9.08005
G1 X90.250 Y100.152 E9.14371
G1 X90.250 Y95.652 E9.23920
G1 X87.250 Y95.652 E9.30286
G1 X87.250 Y93.152 E9.35591
G1 X90.250 Y93.152 E9.41958
G1 X90.250 Y88.652 E9.51507
G1 X87.250 Y88.652 E9.57873
G1 X87.250 Y83.152 E9.69544
G0 F3000.00000 X87.350 Y83.222
G0 X96.457 Y84.918
G0 X96.537 Y84.976
G1 F1800.000 X96.537 Y87.829 E9.75599
G1 X99.251 Y88.710 E9.81654
G1 X100.927 Y86.402 E9.87707
G1 X99.250 Y84.095 E9.93759
G1 X96.537 Y84.976 E9.99812
G1 F1500.00000 E8.99812
G0 F3000.00000 X96.457 Y84.918
G0 X96.505 Y87.852
G0 X103.710 Y100.594
G0 X103.750 Y100.594
G0 X99.250 Y100.594
G1 F1500.000 E9.99812
G1 F1800.00000 X96.537 Y101.475 E10.05865
G1 X96.537 Y104.328 E10.11920
G1 X99.251 Y105.210 E10.17975
G1 X100.927 Y102.901 E10.24030
G1 X99.250 Y100.594 E10.30082
G0 F3000.00000 X99.059 Y101.181
;TYPE:WALL-OUTER
G1 F1800.000 X97.037 Y101.838 E10.34594
G1 X97.037 Y103.965 E10.39108
G1 X99.060 Y104.622 E10.43621
G1 X100.309 Y102.901 E10.48134
G1 X99.059 Y101.181 E10.52646
G0 F3000.00000 X98.877 Y100.610
G0 X103.722 Y98.624
G0 X104.250 Y98.552
G0 X104.250 Y99.152
G1 F1800.000 X104.250 Y106.151 E10.67498
G1 X86.750 Y106.151 E11.04634
G1 X86.750 Y99.652 E11.18426
G1 X89.750 Y99.652 E11.24792
G1 X89.750 Y96.152 E11.32219
G1 X87.250 Y96.152 E11.37524
G1 X87.250 Y97.652 E11.40707
G1 X86.750 Y97.652 E11.41768
G1 X86.750 Y96.152 E11.44951
G1 X86.750 Y91.152 E11.55562
G1 X87.250 Y91.152 E11.56623
G1 X87.250 Y92.652 E11.59806
G1 X89.750 Y92.652 E11.65111
G1 X89.750 Y89.152 E11.72538
G1 X86.750 Y89.152 E11.78904
G1 X86.750 Y82.652 E11.92698
G1 X104.250 Y82.652 E12.29834
G1 X104.250 Y89.652 E12.44688
G1 X113.250 Y89.652 E12.63787
G1 X113.250 Y99.152 E12.83947
G1 X104.250 Y99.152 E13.03045
G0 F3000.00000 X104.250 Y98.552
G0 X98.875 Y88.692
G0 X99.060 Y88.123
G1 F1800.000 X100.309 Y86.402 E13.07558
G1 X99.059 Y84.682 E13.12070
G1 X97.037 Y85.339 E13.16581
G1 X97.037 Y87.466 E13.21095
G1 X99.060 Y88.123 E13.25609
