;FLAVOR:RepRap
;TIME:1045
M190 S50.000000
M104 S235.000000
M109 S235.000000
G21 ;metric values
G90 ;absolute positioning
M82 ;set extruder to absolute mode
M107 ;start with the fan off
G28 X0 Y0 ;move X/Y to min endstops
G28 Z0 ;move Z to min endstops
G1 Z15.0 F9000 ;move the platform down 15mm
G92 E0 ;zero the extruded length
G1 F200 E3 ;extrude 3mm of feed stock
G92 E0 ;zero the extruded length again
G1 F9000
;Put printing message on LCD screen
M117 Printing...
;Generated with Cura_SteamEngine 2.1.0-
;LAYER_COUNT:59
;LAYER:0
M107
G0 F3000.000000 X84.856 Y81.257 Z0.300
G0 X83.920 Y82.944
;TYPE:SKIRT
G1 F1800.000 X83.950 Y82.848 E0.00213
G1 X83.988 Y82.738 E0.00460
G1 X84.116 Y82.395 E0.01237
G1 X84.147 Y82.330 E0.01390
G1 X84.233 Y82.160 E0.01794
G1 X84.378 Y81.892 E0.02441
G1 X84.389 Y81.874 E0.02486
G1 X84.428 Y81.814 E0.02638
G1 X84.497 Y81.715 E0.02894
G1 X84.725 Y81.403 E0.03714
G1 X84.730 Y81.397 E0.03730
G1 X84.784 Y81.335 E0.03905
G1 X84.856 Y81.257 E0.04130
G1 X85.125 Y80.979 E0.04951
G1 X85.192 Y80.921 E0.05139
G1 X85.269 Y80.858 E0.05350
G1 X85.569 Y80.623 E0.06159
G1 X85.582 Y80.613 E0.06194
G1 X85.672 Y80.555 E0.06421
G1 X85.747 Y80.509 E0.06608
G1 X86.064 Y80.325 E0.07385
G1 X86.087 Y80.313 E0.07440
G1 X86.191 Y80.264 E0.07684
G1 X86.251 Y80.237 E0.07824
G1 X86.594 Y80.096 E0.08611
G1 X86.605 Y80.092 E0.08636
G1 X86.711 Y80.059 E0.08871
G1 X86.785 Y80.037 E0.09035
G1 X87.164 Y79.939 E0.09866
G1 X87.190 Y79.935 E0.09922
G1 X87.558 Y79.893 E0.10708
G1 X87.800 Y79.873 E0.11223
G1 X89.070 Y79.846 E0.13919
G1 X94.866 Y79.846 E0.26218
G1 X96.188 Y79.851 E0.29024
G1 X96.907 Y79.846 E0.30549
G1 X103.366 Y79.846 E0.44256
G1 X104.688 Y79.851 E0.47061
G1 X105.407 Y79.846 E0.48587
G1 X111.293 Y79.846 E0.61077
G1 X111.683 Y79.852 E0.61905
G1 X112.567 Y79.894 E0.63783
G1 X112.579 Y79.896 E0.63809
G1 X112.591 Y79.897 E0.63835
G1 X112.698 Y79.916 E0.64065
G1 X112.755 Y79.927 E0.64188
G1 X113.148 Y80.014 E0.65042
G1 X113.243 Y80.044 E0.65254
G1 X113.358 Y80.084 E0.65512
G1 X113.700 Y80.212 E0.66287
G1 X113.766 Y80.243 E0.66442
G1 X113.911 Y80.316 E0.66786
G1 X114.192 Y80.468 E0.67464
G1 X114.222 Y80.485 E0.67538
G1 X114.276 Y80.520 E0.67674
G1 X114.381 Y80.593 E0.67945
G1 X114.691 Y80.819 E0.68760
G1 X114.761 Y80.880 E0.68957
G1 X114.837 Y80.950 E0.69176
G1 X115.116 Y81.221 E0.70001
G1 X115.158 Y81.268 E0.70135
G1 X115.238 Y81.365 E0.70402
G1 X115.470 Y81.661 E0.71200
G1 X115.483 Y81.678 E0.71245
G1 X115.536 Y81.760 E0.71452
G1 X115.579 Y81.829 E0.71625
G1 X115.771 Y82.160 E0.72437
G1 X115.781 Y82.179 E0.72483
G1 X115.829 Y82.279 E0.72718
G1 X115.859 Y82.347 E0.72876
G1 X115.997 Y82.682 E0.73645
G1 X116.002 Y82.696 E0.73676
G1 X116.030 Y82.782 E0.73868
G1 X116.054 Y82.864 E0.74049
G1 X116.156 Y83.258 E0.74913
G1 X116.161 Y83.286 E0.74973
G1 X116.203 Y83.654 E0.75759
G1 X116.223 Y83.896 E0.76275
G1 X116.250 Y85.166 E0.78970
G1 X116.250 Y101.388 E1.13394
G1 X116.244 Y101.778 E1.14222
G1 X116.202 Y102.662 E1.16100
G1 X116.200 Y102.674 E1.16126
G1 X116.200 Y102.676 E1.16130
G1 X116.183 Y102.779 E1.16352
G1 X116.169 Y102.850 E1.16505
G1 X116.082 Y103.243 E1.17359
G1 X116.055 Y103.327 E1.17547
G1 X116.012 Y103.453 E1.17829
G1 X115.884 Y103.795 E1.18604
G1 X115.853 Y103.861 E1.18759
G1 X115.780 Y104.006 E1.19103
G1 X115.633 Y104.279 E1.19761
G1 X115.623 Y104.297 E1.19805
G1 X115.614 Y104.312 E1.19842
G1 X115.572 Y104.377 E1.20006
G1 X115.503 Y104.476 E1.20262
G1 X115.276 Y104.787 E1.21080
G1 X115.230 Y104.840 E1.21228
G1 X113.403 Y106.999 E1.27230
G1 X111.638 Y109.209 E1.33232
G1 X109.936 Y111.467 E1.39232
G1 X108.586 Y113.363 E1.44172
G1 X108.277 Y113.786 E1.45283
G1 X108.216 Y113.856 E1.45480
G1 X108.146 Y113.932 E1.45700
G1 X107.875 Y114.211 E1.46525
G1 X107.823 Y114.257 E1.46672
G1 X107.731 Y114.333 E1.46925
G1 X107.431 Y114.568 E1.47734
G1 X107.418 Y114.578 E1.47769
G1 X107.336 Y114.631 E1.47976
G1 X107.267 Y114.674 E1.48149
G1 X106.936 Y114.866 E1.48961
G1 X106.923 Y114.873 E1.48992
G1 X106.817 Y114.924 E1.49242
G1 X106.749 Y114.954 E1.49399
G1 X106.406 Y115.095 E1.50186
G1 X106.402 Y115.096 E1.50195
G1 X106.398 Y115.098 E1.50205
G1 X106.289 Y115.132 E1.50447
G1 X106.215 Y115.154 E1.50611
G1 X105.836 Y115.252 E1.51441
G1 X105.810 Y115.256 E1.51497
G1 X105.442 Y115.298 E1.52283
G1 X105.200 Y115.318 E1.52799
G1 X103.930 Y115.345 E1.55494
G1 X95.707 Y115.345 E1.72944
G1 X95.317 Y115.339 E1.73772
G1 X94.432 Y115.297 E1.75652
G1 X94.433 Y115.297 E1.75654
G1 X94.421 Y115.295 E1.75680
G1 X94.409 Y115.294 E1.75705
G1 X94.302 Y115.275 E1.75936
G1 X94.245 Y115.264 E1.76059
G1 X93.852 Y115.177 E1.76913
G1 X93.757 Y115.147 E1.77125
G1 X93.642 Y115.107 E1.77383
G1 X93.300 Y114.979 E1.78158
G1 X93.223 Y114.943 E1.78338
G1 X93.085 Y114.873 E1.78667
G1 X92.808 Y114.723 E1.79335
G1 X92.781 Y114.708 E1.79401
G1 X92.776 Y114.705 E1.79413
G1 X92.709 Y114.661 E1.79583
G1 X92.610 Y114.592 E1.79839
G1 X92.309 Y114.372 E1.80630
G1 X92.239 Y114.311 E1.80827
G1 X92.163 Y114.241 E1.81047
G1 X91.884 Y113.970 E1.81872
G1 X91.830 Y113.909 E1.82045
G1 X91.762 Y113.826 E1.82273
G1 X91.521 Y113.518 E1.83103
G1 X91.428 Y113.385 E1.83447
G1 X89.781 Y111.086 E1.89448
G1 X88.069 Y108.835 E1.95450
G1 X86.294 Y106.633 E2.01452
G1 X84.892 Y104.984 E2.06045
G1 X84.755 Y104.818 E2.06501
G1 X84.527 Y104.526 E2.07287
G1 X84.517 Y104.513 E2.07322
G1 X84.450 Y104.409 E2.07585
G1 X84.414 Y104.350 E2.07731
G1 X84.229 Y104.031 E2.08514
G1 X84.219 Y104.012 E2.08560
G1 X84.170 Y103.908 E2.08804
G1 X84.141 Y103.844 E2.08953
G1 X84.000 Y103.500 E2.09742
G1 X83.998 Y103.495 E2.09753
G1 X83.996 Y103.489 E2.09766
G1 X83.958 Y103.369 E2.10034
G1 X83.941 Y103.310 E2.10164
G1 X83.843 Y102.931 E2.10995
G1 X83.839 Y102.905 E2.11050
G1 X83.796 Y102.523 E2.11866
G1 X83.777 Y102.295 E2.12352
G1 X83.750 Y101.025 E2.15047
G1 X83.750 Y84.803 E2.49471
G1 X83.756 Y84.413 E2.50299
G1 X83.798 Y83.528 E2.52179
G1 X83.800 Y83.515 E2.52207
G1 X83.801 Y83.505 E2.52229
G1 X83.820 Y83.396 E2.52463
G1 X83.831 Y83.341 E2.52582
G1 X83.919 Y82.947 E2.53439
G1 X83.919 Y82.944 E2.53445
G1 X83.920 Y82.944 E2.53448
G0 F3000.00000 X84.387 Y83.147
G1 F1800.000 X84.411 Y83.048 E2.53664
G1 X84.541 Y82.691 E2.54470
G1 X84.600 Y82.542 E2.54810
G1 X84.817 Y82.140 E2.55779
G1 X84.855 Y82.074 E2.55941
G1 X85.123 Y81.716 E2.56890
G1 X85.203 Y81.616 E2.57162
G1 X85.455 Y81.365 E2.57917
G1 X85.590 Y81.238 E2.58310
G1 X85.896 Y81.012 E2.59117
G1 X86.014 Y80.929 E2.59423
G1 X86.416 Y80.714 E2.60391
G1 X86.516 Y80.664 E2.60628
G1 X86.868 Y80.538 E2.61421
G1 X87.018 Y80.489 E2.61756
G1 X87.427 Y80.406 E2.62642
G1 X87.465 Y80.400 E2.62723
G1 X88.049 Y80.355 E2.63966
G1 X88.722 Y80.346 E2.65395
G1 X94.315 Y80.346 E2.77263
G1 X94.389 Y80.347 E2.77420
G1 X97.056 Y80.347 E2.83080
G1 X97.132 Y80.346 E2.83241
G1 X102.815 Y80.346 E2.95301
G1 X102.889 Y80.347 E2.95458
G1 X105.556 Y80.347 E3.01118
G1 X105.632 Y80.346 E3.01279
G1 X111.293 Y80.346 E3.13292
G1 X111.999 Y80.356 E3.14790
G1 X112.175 Y80.363 E3.15164
G1 X112.514 Y80.393 E3.15886
G1 X112.921 Y80.477 E3.16768
G1 X113.048 Y80.507 E3.17045
G1 X113.398 Y80.634 E3.17835
G1 X113.554 Y80.696 E3.18191
G1 X113.948 Y80.908 E3.19141
G1 X114.022 Y80.951 E3.19322
G1 X114.362 Y81.205 E3.20223
G1 X114.479 Y81.298 E3.20540
G1 X114.731 Y81.551 E3.21298
G1 X114.858 Y81.686 E3.21691
G1 X115.084 Y81.992 E3.22498
G1 X115.167 Y82.110 E3.22805
G1 X115.382 Y82.512 E3.23772
G1 X115.432 Y82.612 E3.24009
G1 X115.558 Y82.964 E3.24803
G1 X115.607 Y83.114 E3.25138
G1 X115.690 Y83.523 E3.26023
G1 X115.696 Y83.561 E3.26105
G1 X115.741 Y84.145 E3.27348
G1 X115.750 Y84.818 E3.28776
G1 X115.750 Y101.367 E3.63894
G1 X115.740 Y102.094 E3.65437
G1 X115.733 Y102.270 E3.65811
G1 X115.703 Y102.609 E3.66533
G1 X115.619 Y103.016 E3.67415
G1 X115.589 Y103.143 E3.67692
G1 X115.467 Y103.480 E3.68452
G1 X115.400 Y103.649 E3.68838
G1 X115.193 Y104.033 E3.69764
G1 X115.145 Y104.117 E3.69969
G1 X114.885 Y104.465 E3.70891
G1 X114.789 Y104.585 E3.71217
G1 X113.997 Y105.524 E3.73824
G1 X113.864 Y105.677 E3.74254
G1 X112.068 Y107.862 E3.80256
G1 X110.335 Y110.097 E3.86258
G1 X108.236 Y112.991 E3.93844
G1 X108.201 Y113.041 E3.93974
G1 X107.885 Y113.465 E3.95096
G1 X107.798 Y113.574 E3.95392
G1 X107.545 Y113.826 E3.96150
G1 X107.412 Y113.951 E3.96537
G1 X107.104 Y114.179 E3.97350
G1 X106.986 Y114.262 E3.97656
G1 X106.584 Y114.477 E3.98624
G1 X106.484 Y114.527 E3.98861
G1 X106.132 Y114.653 E3.99654
G1 X105.982 Y114.702 E3.99989
G1 X105.573 Y114.785 E4.00875
G1 X105.535 Y114.791 E4.00956
G1 X104.951 Y114.836 E4.02199
G1 X104.278 Y114.845 E4.03628
G1 X95.707 Y114.845 E4.21816
G1 X95.001 Y114.835 E4.23314
G1 X94.825 Y114.828 E4.23688
G1 X94.486 Y114.798 E4.24410
G1 X94.079 Y114.714 E4.25292
G1 X93.952 Y114.684 E4.25569
G1 X93.599 Y114.556 E4.26366
G1 X93.446 Y114.495 E4.26715
G1 X93.047 Y114.280 E4.27677
G1 X92.978 Y114.240 E4.27846
G1 X92.630 Y113.980 E4.28768
G1 X92.521 Y113.893 E4.29064
G1 X92.269 Y113.640 E4.29822
G1 X92.142 Y113.505 E4.30215
G1 X91.908 Y113.189 E4.31050
G1 X91.882 Y113.151 E4.31147
G1 X90.234 Y110.852 E4.37150
G1 X88.523 Y108.601 E4.43150
G1 X86.748 Y106.398 E4.49153
G1 X85.778 Y105.267 E4.52315
G1 X85.150 Y104.515 E4.54394
G1 X84.916 Y104.199 E4.55229
G1 X84.833 Y104.081 E4.55535
G1 X84.618 Y103.679 E4.56502
G1 X84.568 Y103.579 E4.56740
G1 X84.442 Y103.227 E4.57533
G1 X84.393 Y103.077 E4.57868
G1 X84.310 Y102.668 E4.58754
G1 X84.304 Y102.630 E4.58835
G1 X84.259 Y102.046 E4.60078
G1 X84.250 Y101.367 E4.61519
G1 X84.250 Y84.803 E4.96669
G1 X84.260 Y84.096 E4.98169
G1 X84.267 Y83.921 E4.98541
G1 X84.297 Y83.582 E4.99263
G1 X84.387 Y83.147 E5.00206
G0 F3000.00000 X84.767 Y83.940
G1 F1800.000 X84.767 Y83.938 E5.00210
G1 X84.800 Y83.588 E5.00956
G1 X84.801 Y83.583 E5.00967
G1 X84.834 Y83.425 E5.01310
G1 X84.915 Y83.107 E5.02006
G1 X84.920 Y83.093 E5.02037
G1 X84.978 Y82.939 E5.02387
G1 X85.110 Y82.633 E5.03094
G1 X85.118 Y82.618 E5.03130
G1 X85.199 Y82.477 E5.03475
G1 X85.379 Y82.192 E5.04190
G1 X85.382 Y82.188 E5.04201
G1 X85.483 Y82.062 E5.04544
G1 X85.703 Y81.811 E5.05252
G1 X85.832 Y81.694 E5.05621
G1 X86.093 Y81.476 E5.06343
G1 X86.107 Y81.466 E5.06380
G1 X86.222 Y81.390 E5.06672
G1 X86.442 Y81.260 E5.07214
G1 X86.999 Y81.015 E5.08506
G1 X87.144 Y80.975 E5.08825
G1 X87.493 Y80.896 E5.09584
G1 X87.660 Y80.878 E5.09941
G1 X87.986 Y80.856 E5.10634
G1 X88.126 Y80.851 E5.10931
G1 X88.564 Y80.846 E5.11861
G1 X94.873 Y80.846 E5.25249
G1 X96.892 Y80.849 E5.29533
G1 X97.139 Y80.846 E5.30058
G1 X103.373 Y80.846 E5.43287
G1 X105.392 Y80.849 E5.47571
G1 X105.639 Y80.846 E5.48095
G1 X111.293 Y80.846 E5.60093
G1 X111.999 Y80.856 E5.61592
G1 X112.133 Y80.862 E5.61876
G1 X112.158 Y80.863 E5.61929
G1 X112.504 Y80.895 E5.62667
G1 X112.507 Y80.896 E5.62673
G1 X112.509 Y80.896 E5.62678
G1 X112.671 Y80.930 E5.63029
G1 X112.989 Y81.011 E5.63725
G1 X113.002 Y81.016 E5.63755
G1 X113.157 Y81.074 E5.64106
G1 X113.463 Y81.206 E5.64813
G1 X113.473 Y81.211 E5.64837
G1 X113.619 Y81.295 E5.65194
G1 X113.898 Y81.471 E5.65894
G1 X113.904 Y81.475 E5.65910
G1 X114.034 Y81.579 E5.66263
G1 X114.285 Y81.799 E5.66971
G1 X114.402 Y81.928 E5.67341
G1 X114.615 Y82.183 E5.68046
G1 X114.627 Y82.199 E5.68088
G1 X114.705 Y82.317 E5.68389
G1 X114.836 Y82.538 E5.68934
G1 X115.081 Y83.093 E5.70221
G1 X115.118 Y83.227 E5.70516
G1 X115.199 Y83.583 E5.71291
G1 X115.218 Y83.756 E5.71660
G1 X115.240 Y84.082 E5.72354
G1 X115.245 Y84.222 E5.72651
G1 X115.250 Y84.660 E5.73580
G1 X115.250 Y101.388 E6.09078
G1 X115.240 Y102.094 E6.10577
G1 X115.234 Y102.228 E6.10861
G1 X115.233 Y102.250 E6.10908
G1 X115.201 Y102.599 E6.11652
G1 X115.200 Y102.602 E6.11658
G1 X115.200 Y102.603 E6.11661
G1 X115.166 Y102.766 E6.12014
G1 X115.085 Y103.084 E6.12710
G1 X115.080 Y103.097 E6.12740
G1 X115.023 Y103.248 E6.13082
G1 X114.890 Y103.558 E6.13798
G1 X114.885 Y103.568 E6.13822
G1 X114.801 Y103.714 E6.14179
G1 X114.619 Y104.002 E6.14902
G1 X114.621 Y104.000 E6.14908
G1 X114.429 Y104.239 E6.15559
G1 X114.418 Y104.253 E6.15597
G1 X112.893 Y106.044 E6.20588
G1 X111.121 Y108.249 E6.26591
G1 X109.412 Y110.503 E6.32594
G1 X108.465 Y111.846 E6.36081
G1 X108.451 Y111.836 E6.36118
G1 X107.621 Y113.000 E6.39151
G1 X107.517 Y113.129 E6.39503
G1 X107.297 Y113.380 E6.40211
G1 X107.296 Y113.380 E6.40213
G1 X107.168 Y113.497 E6.40581
G1 X106.907 Y113.715 E6.41303
G1 X106.900 Y113.720 E6.41321
G1 X106.896 Y113.723 E6.41332
G1 X106.778 Y113.801 E6.41632
G1 X106.558 Y113.931 E6.42174
G1 X106.001 Y114.176 E6.43466
G1 X105.856 Y114.216 E6.43785
G1 X105.507 Y114.295 E6.44544
G1 X105.340 Y114.313 E6.44900
G1 X105.014 Y114.335 E6.45594
G1 X104.874 Y114.340 E6.45891
G1 X104.436 Y114.345 E6.46821
G1 X95.707 Y114.345 E6.65344
G1 X95.001 Y114.335 E6.66842
G1 X94.867 Y114.329 E6.67127
G1 X94.842 Y114.328 E6.67180
G1 X94.496 Y114.296 E6.67918
G1 X94.492 Y114.295 E6.67926
G1 X94.329 Y114.261 E6.68280
G1 X94.011 Y114.180 E6.68976
G1 X93.998 Y114.175 E6.69006
G1 X93.843 Y114.117 E6.69357
G1 X93.537 Y113.985 E6.70064
G1 X93.527 Y113.980 E6.70088
G1 X93.381 Y113.896 E6.70445
G1 X93.096 Y113.716 E6.71160
G1 X93.093 Y113.714 E6.71168
G1 X92.966 Y113.612 E6.71514
G1 X92.712 Y113.389 E6.72231
G1 X92.589 Y113.253 E6.72620
G1 X92.380 Y113.002 E6.73313
G1 X92.368 Y112.986 E6.73356
G1 X92.064 Y112.551 E6.74482
G1 X90.410 Y110.256 E6.80485
G1 X88.692 Y108.010 E6.86486
G1 X86.912 Y105.812 E6.92488
G1 X85.842 Y104.555 E6.95991
G1 X85.380 Y104.002 E6.97520
G1 X85.369 Y103.987 E6.97559
G1 X85.294 Y103.873 E6.97849
G1 X85.164 Y103.653 E6.98391
G1 X84.919 Y103.096 E6.99682
G1 X84.879 Y102.951 E7.00002
G1 X84.800 Y102.602 E7.00761
G1 X84.782 Y102.435 E7.01117
G1 X84.760 Y102.109 E7.01811
G1 X84.755 Y101.969 E7.02108
G1 X84.750 Y101.531 E7.03037
G1 X84.750 Y84.803 E7.38535
G1 X84.760 Y84.096 E7.40036
G1 X84.767 Y83.940 E7.40367
G1 F1500.00000 E6.40367
G0 F3000.00000 X86.461 Y84.324
G0 X88.750 Y84.846
G0 X88.778 Y84.874
G0 X88.820 Y84.916
G0 X88.750 Y84.846
;TYPE:WALL-INNER
G1 F1500.000 E7.40367
G1 F1800.00000 X94.250 Y84.846 E7.52039
G1 X94.250 Y87.846 E7.58405
G1 X98.750 Y87.846 E7.67954
G1 X98.750 Y84.846 E7.74320
G1 X101.250 Y84.846 E7.79625
G1 X101.250 Y87.846 E7.85992
G1 X105.750 Y87.846 E7.95541
G1 X105.750 Y84.846 E8.01907
G1 X111.250 Y84.846 E8.13579
G1 X111.250 Y94.544 E8.34158
G1 X110.909 Y94.636 E8.34908
G1 X109.875 Y92.846 E8.39295
G1 X106.124 Y92.846 E8.47254
G1 X104.246 Y96.096 E8.55220
G1 X106.124 Y99.346 E8.63185
G1 X109.875 Y99.346 E8.71145
G1 X110.909 Y97.556 E8.75532
G1 X111.250 Y97.648 E8.76281
G1 X111.250 Y101.345 E8.84126
G1 X104.250 Y101.345 E8.98981
G1 X104.250 Y110.345 E9.18079
G1 X95.750 Y110.345 E9.36117
G1 X95.750 Y101.345 E9.55216
G1 X88.750 Y101.345 E9.70070
G1 X88.750 Y98.514 E9.76078
G1 X89.091 Y98.422 E9.76827
G1 X89.625 Y99.346 E9.79092
G1 X93.376 Y99.346 E9.87052
G1 X95.254 Y96.096 E9.95017
G1 X93.376 Y92.846 E10.02982
G1 X89.625 Y92.846 E10.10942
G1 X89.091 Y93.770 E10.13207
G1 X88.750 Y93.678 E10.13956
G1 X88.750 Y84.846 E10.32699
G0 F3000.00000 X88.250 Y84.346
;TYPE:WALL-OUTER
G1 F1800.000 X94.750 Y84.346 E10.46492
G1 X94.750 Y87.346 E10.52858
G1 X98.250 Y87.346 E10.60285
G1 X98.250 Y84.846 E10.65591
G1 X96.750 Y84.846 E10.68774
G1 X96.750 Y84.346 E10.69835
G1 X98.250 Y84.346 E10.73018
G1 X103.250 Y84.346 E10.83628
G1 X103.250 Y84.846 E10.84689
G1 X101.750 Y84.846 E10.87872
G1 X101.750 Y87.346 E10.93177
G1 X105.250 Y87.346 E11.00605
G1 X105.250 Y84.346 E11.06971
G1 X111.750 Y84.346 E11.20764
G1 X111.750 Y101.845 E11.57898
G1 X104.750 Y101.845 E11.72753
G1 X104.750 Y110.845 E11.91851
G1 X95.250 Y110.845 E12.12011
G1 X95.250 Y101.845 E12.31110
G1 X88.250 Y101.845 E12.45964
G1 X88.250 Y96.888 E12.56483
G1 X88.250 Y96.096 E12.58164
G1 X88.250 Y95.304 E12.59844
G1 X88.250 Y84.346 E12.83098
G0 F3000.00000 X88.850 Y84.916
G0 X89.395 Y93.045
G0 X89.913 Y93.346
G1 F1800.000 X88.721 Y95.411 E12.88158
G1 X88.325 Y96.096 E12.89123
G1 X88.721 Y96.781 E12.90089
G1 X89.913 Y98.846 E12.95148
G1 X93.088 Y98.846 E13.01886
G1 X94.676 Y96.096 E13.08625
G1 X93.088 Y93.346 E13.15364
G1 X89.913 Y93.346 E13.22101
G0 F3000.00000 X89.396 Y93.044
G0 X89.606 Y92.812
G0 X93.395 Y92.812
