;FLAVOR:RepRap
;TIME:1038
M190 S50.000000
M104 S235.000000
M109 S235.000000
G21 ;metric values
G90 ;absolute positioning
M82 ;set extruder to absolute mode
M107 ;start with the fan off
G28 X0 Y0 ;move X/Y to min endstops
G28 Z0 ;move Z to min endstops
G1 Z15.0 F9000 ;move the platform down 15mm
G92 E0 ;zero the extruded length
G1 F200 E3 ;extrude 3mm of feed stock
G92 E0 ;zero the extruded length again
G1 F9000
;Put printing message on LCD screen
M117 Printing...
;Generated with Cura_SteamEngine 2.1.0-
;LAYER_COUNT:59
;LAYER:0
M107
G1 F1500.000000 E-1.00000
G0 F3000.00000 X91.784 Y81.335 Z0.300
G0 X91.730 Y81.397
;TYPE:SKIRT
G1 F1500.000 E0.00000
G1 F1800.00000 X91.784 Y81.335 E0.00174
G1 X91.856 Y81.257 E0.00400
G1 X92.125 Y80.979 E0.01221
G1 X92.192 Y80.921 E0.01409
G1 X92.269 Y80.858 E0.01620
G1 X92.569 Y80.623 E0.02428
G1 X92.582 Y80.613 E0.02463
G1 X92.672 Y80.555 E0.02691
G1 X92.747 Y80.509 E0.02877
G1 X93.064 Y80.325 E0.03655
G1 X93.087 Y80.313 E0.03710
G1 X93.191 Y80.264 E0.03954
G1 X93.251 Y80.237 E0.04094
G1 X93.594 Y80.096 E0.04881
G1 X93.605 Y80.092 E0.04905
G1 X93.711 Y80.059 E0.05141
G1 X93.785 Y80.037 E0.05305
G1 X94.164 Y79.939 E0.06136
G1 X94.190 Y79.935 E0.06191
G1 X94.558 Y79.893 E0.06977
G1 X94.800 Y79.873 E0.07493
G1 X96.070 Y79.846 E0.10188
G1 X104.293 Y79.846 E0.27638
G1 X104.683 Y79.852 E0.28466
G1 X105.567 Y79.894 E0.30344
G1 X105.579 Y79.896 E0.30370
G1 X105.591 Y79.897 E0.30395
G1 X105.698 Y79.916 E0.30626
G1 X105.755 Y79.927 E0.30749
G1 X106.148 Y80.014 E0.31603
G1 X106.243 Y80.044 E0.31815
G1 X106.358 Y80.084 E0.32073
G1 X106.700 Y80.212 E0.32848
G1 X106.766 Y80.243 E0.33003
G1 X106.911 Y80.316 E0.33347
G1 X107.192 Y80.468 E0.34025
G1 X107.219 Y80.483 E0.34091
G1 X107.224 Y80.486 E0.34103
G1 X107.276 Y80.520 E0.34235
G1 X107.381 Y80.593 E0.34506
G1 X107.691 Y80.819 E0.35320
G1 X107.761 Y80.880 E0.35517
G1 X107.837 Y80.950 E0.35737
G1 X108.116 Y81.221 E0.36562
G1 X108.170 Y81.282 E0.36735
G1 X108.238 Y81.365 E0.36962
G1 X108.479 Y81.673 E0.37792
G1 X108.572 Y81.806 E0.38137
G1 X110.219 Y84.105 E0.44138
G1 X111.931 Y86.356 E0.50139
G1 X113.706 Y88.558 E0.56141
G1 X115.087 Y90.181 E0.60664
G1 X115.227 Y90.351 E0.61131
G1 X115.470 Y90.661 E0.61967
G1 X115.483 Y90.678 E0.62012
G1 X115.536 Y90.760 E0.62219
G1 X115.579 Y90.829 E0.62392
G1 X115.771 Y91.160 E0.63204
G1 X115.781 Y91.179 E0.63249
G1 X115.829 Y91.279 E0.63485
G1 X115.859 Y91.347 E0.63643
G1 X115.997 Y91.682 E0.64411
G1 X116.002 Y91.696 E0.64443
G1 X116.030 Y91.782 E0.64635
G1 X116.054 Y91.864 E0.64816
G1 X116.156 Y92.258 E0.65680
G1 X116.161 Y92.286 E0.65740
G1 X116.203 Y92.654 E0.66526
G1 X116.223 Y92.896 E0.67042
G1 X116.250 Y94.166 E0.69737
G1 X116.250 Y110.388 E1.04161
G1 X116.244 Y110.778 E1.04989
G1 X116.202 Y111.662 E1.06867
G1 X116.200 Y111.674 E1.06893
G1 X116.200 Y111.676 E1.06897
G1 X116.183 Y111.779 E1.07119
G1 X116.169 Y111.850 E1.07272
G1 X116.082 Y112.243 E1.08126
G1 X116.055 Y112.327 E1.08314
G1 X116.012 Y112.453 E1.08596
G1 X115.884 Y112.795 E1.09371
G1 X115.853 Y112.861 E1.09526
G1 X115.788 Y112.991 E1.09834
G1 X115.628 Y113.287 E1.10548
G1 X115.623 Y113.297 E1.10572
G1 X115.614 Y113.312 E1.10609
G1 X115.572 Y113.377 E1.10773
G1 X115.503 Y113.476 E1.11029
G1 X115.277 Y113.786 E1.11843
G1 X115.227 Y113.843 E1.12004
G1 X115.154 Y113.923 E1.12234
G1 X114.875 Y114.211 E1.13085
G1 X114.814 Y114.265 E1.13258
G1 X114.731 Y114.333 E1.13486
G1 X114.431 Y114.568 E1.14294
G1 X114.418 Y114.578 E1.14329
G1 X114.336 Y114.631 E1.14536
G1 X114.267 Y114.674 E1.14709
G1 X113.936 Y114.866 E1.15521
G1 X113.923 Y114.873 E1.15552
G1 X113.817 Y114.924 E1.15802
G1 X113.749 Y114.954 E1.15960
G1 X113.406 Y115.095 E1.16747
G1 X113.402 Y115.096 E1.16755
G1 X113.398 Y115.098 E1.16765
G1 X113.289 Y115.132 E1.17007
G1 X113.215 Y115.154 E1.17171
G1 X112.836 Y115.252 E1.18002
G1 X112.810 Y115.256 E1.18057
G1 X112.442 Y115.298 E1.18843
G1 X112.200 Y115.318 E1.19359
G1 X110.930 Y115.345 E1.22054
G1 X105.134 Y115.345 E1.34354
G1 X103.812 Y115.340 E1.37159
G1 X103.093 Y115.345 E1.38685
G1 X96.634 Y115.345 E1.52391
G1 X95.312 Y115.340 E1.55197
G1 X94.593 Y115.345 E1.56723
G1 X88.707 Y115.345 E1.69213
G1 X88.317 Y115.339 E1.70041
G1 X87.433 Y115.297 E1.71919
G1 X87.421 Y115.295 E1.71945
G1 X87.409 Y115.294 E1.71970
G1 X87.302 Y115.275 E1.72201
G1 X87.245 Y115.264 E1.72324
G1 X86.852 Y115.177 E1.73178
G1 X86.757 Y115.147 E1.73390
G1 X86.642 Y115.107 E1.73648
G1 X86.300 Y114.979 E1.74423
G1 X86.223 Y114.943 E1.74603
G1 X86.085 Y114.873 E1.74932
G1 X85.808 Y114.723 E1.75600
G1 X85.781 Y114.708 E1.75666
G1 X85.776 Y114.705 E1.75678
G1 X85.709 Y114.661 E1.75848
G1 X85.610 Y114.592 E1.76104
G1 X85.309 Y114.372 E1.76895
G1 X85.239 Y114.311 E1.77092
G1 X85.161 Y114.239 E1.77318
G1 X84.884 Y113.970 E1.78137
G1 X84.830 Y113.909 E1.78310
G1 X84.755 Y113.818 E1.78560
G1 X84.527 Y113.526 E1.79346
G1 X84.512 Y113.505 E1.79401
G1 X84.464 Y113.431 E1.79588
G1 X84.414 Y113.350 E1.79790
G1 X84.229 Y113.031 E1.80573
G1 X84.219 Y113.012 E1.80618
G1 X84.169 Y112.907 E1.80865
G1 X84.141 Y112.844 E1.81011
G1 X84.000 Y112.500 E1.81800
G1 X83.998 Y112.495 E1.81812
G1 X83.996 Y112.489 E1.81825
G1 X83.958 Y112.369 E1.82092
G1 X83.941 Y112.310 E1.82223
G1 X83.843 Y111.931 E1.83053
G1 X83.839 Y111.905 E1.83109
G1 X83.796 Y111.523 E1.83925
G1 X83.777 Y111.295 E1.84410
G1 X83.750 Y110.025 E1.87106
G1 X83.750 Y93.803 E2.21530
G1 X83.756 Y93.413 E2.22358
G1 X83.798 Y92.528 E2.24238
G1 X83.800 Y92.515 E2.24266
G1 X83.801 Y92.505 E2.24287
G1 X83.820 Y92.396 E2.24522
G1 X83.831 Y92.341 E2.24641
G1 X83.919 Y91.947 E2.25498
G1 X83.919 Y91.944 E2.25504
G1 X83.920 Y91.944 E2.25506
G1 X83.950 Y91.848 E2.25720
G1 X83.988 Y91.738 E2.25967
G1 X84.116 Y91.395 E2.26744
G1 X84.147 Y91.330 E2.26896
G1 X84.233 Y91.160 E2.27301
G1 X84.378 Y90.892 E2.27947
G1 X84.389 Y90.874 E2.27992
G1 X84.428 Y90.814 E2.28144
G1 X84.497 Y90.715 E2.28400
G1 X84.725 Y90.403 E2.29220
G1 X84.727 Y90.401 E2.29226
G1 X84.770 Y90.351 E2.29366
G1 X86.597 Y88.192 E2.35368
G1 X88.362 Y85.982 E2.41370
G1 X90.064 Y83.724 E2.47370
G1 X91.430 Y81.806 E2.52367
G1 X91.725 Y81.403 E2.53427
G1 X91.730 Y81.397 E2.53443
G0 F3000.00000 X92.123 Y81.716
G1 F1800.000 X92.203 Y81.616 E2.53715
G1 X92.455 Y81.365 E2.54470
G1 X92.590 Y81.238 E2.54863
G1 X92.896 Y81.012 E2.55670
G1 X93.014 Y80.929 E2.55977
G1 X93.416 Y80.714 E2.56944
G1 X93.516 Y80.664 E2.57181
G1 X93.868 Y80.538 E2.57975
G1 X94.018 Y80.489 E2.58309
G1 X94.427 Y80.406 E2.59195
G1 X94.465 Y80.400 E2.59277
G1 X95.049 Y80.355 E2.60520
G1 X95.722 Y80.346 E2.61948
G1 X104.293 Y80.346 E2.80136
G1 X104.999 Y80.356 E2.81634
G1 X105.175 Y80.363 E2.82008
G1 X105.514 Y80.393 E2.82730
G1 X105.921 Y80.477 E2.83612
G1 X106.048 Y80.507 E2.83889
G1 X106.398 Y80.634 E2.84679
G1 X106.554 Y80.696 E2.85036
G1 X106.948 Y80.908 E2.85985
G1 X107.022 Y80.951 E2.86167
G1 X107.362 Y81.205 E2.87067
G1 X107.479 Y81.298 E2.87384
G1 X107.731 Y81.551 E2.88142
G1 X107.858 Y81.686 E2.88535
G1 X108.085 Y81.993 E2.89346
G1 X108.118 Y82.040 E2.89468
G1 X109.766 Y84.339 E2.95470
G1 X111.477 Y86.590 E3.01470
G1 X113.252 Y88.793 E3.07474
G1 X114.211 Y89.911 E3.10599
G1 X114.847 Y90.672 E3.12704
G1 X115.084 Y90.992 E3.13549
G1 X115.167 Y91.110 E3.13855
G1 X115.382 Y91.512 E3.14823
G1 X115.432 Y91.612 E3.15060
G1 X115.558 Y91.964 E3.15853
G1 X115.607 Y92.114 E3.16188
G1 X115.690 Y92.523 E3.17074
G1 X115.696 Y92.561 E3.17155
G1 X115.741 Y93.145 E3.18398
G1 X115.750 Y93.818 E3.19827
G1 X115.750 Y110.367 E3.54945
G1 X115.740 Y111.094 E3.56488
G1 X115.733 Y111.270 E3.56861
G1 X115.703 Y111.609 E3.57584
G1 X115.619 Y112.016 E3.58465
G1 X115.589 Y112.143 E3.58742
G1 X115.467 Y112.480 E3.59503
G1 X115.400 Y112.649 E3.59889
G1 X115.193 Y113.033 E3.60814
G1 X115.145 Y113.117 E3.61020
G1 X114.885 Y113.465 E3.61942
G1 X114.798 Y113.574 E3.62238
G1 X114.550 Y113.821 E3.62980
G1 X114.412 Y113.951 E3.63383
G1 X114.104 Y114.179 E3.64196
G1 X113.986 Y114.262 E3.64502
G1 X113.584 Y114.477 E3.65469
G1 X113.484 Y114.527 E3.65707
G1 X113.132 Y114.653 E3.66500
G1 X112.982 Y114.702 E3.66835
G1 X112.573 Y114.785 E3.67721
G1 X112.535 Y114.791 E3.67802
G1 X111.951 Y114.836 E3.69045
G1 X111.278 Y114.845 E3.70473
G1 X105.685 Y114.845 E3.82342
G1 X105.611 Y114.844 E3.82499
G1 X102.944 Y114.844 E3.88159
G1 X102.868 Y114.845 E3.88320
G1 X97.185 Y114.845 E4.00380
G1 X97.111 Y114.844 E4.00537
G1 X94.444 Y114.844 E4.06196
G1 X94.368 Y114.845 E4.06358
G1 X88.707 Y114.845 E4.18371
G1 X88.001 Y114.835 E4.19869
G1 X87.825 Y114.828 E4.20243
G1 X87.486 Y114.798 E4.20965
G1 X87.079 Y114.714 E4.21847
G1 X86.952 Y114.684 E4.22124
G1 X86.599 Y114.556 E4.22921
G1 X86.446 Y114.495 E4.23270
G1 X86.047 Y114.280 E4.24232
G1 X85.978 Y114.240 E4.24401
G1 X85.630 Y113.980 E4.25323
G1 X85.521 Y113.893 E4.25619
G1 X85.269 Y113.640 E4.26377
G1 X85.142 Y113.505 E4.26770
G1 X84.908 Y113.189 E4.27604
G1 X84.833 Y113.081 E4.27883
G1 X84.618 Y112.679 E4.28851
G1 X84.568 Y112.579 E4.29088
G1 X84.442 Y112.227 E4.29881
G1 X84.393 Y112.077 E4.30216
G1 X84.310 Y111.668 E4.31102
G1 X84.304 Y111.630 E4.31184
G1 X84.259 Y111.046 E4.32427
G1 X84.250 Y110.367 E4.33868
G1 X84.250 Y93.803 E4.69017
G1 X84.260 Y93.096 E4.70518
G1 X84.267 Y92.921 E4.70890
G1 X84.297 Y92.582 E4.71612
G1 X84.387 Y92.147 E4.72554
G1 X84.411 Y92.048 E4.72771
G1 X84.541 Y91.691 E4.73577
G1 X84.600 Y91.542 E4.73917
G1 X84.817 Y91.140 E4.74886
G1 X84.855 Y91.074 E4.75048
G1 X85.115 Y90.726 E4.75970
G1 X85.211 Y90.606 E4.76296
G1 X86.022 Y89.645 E4.78964
G1 X86.136 Y89.514 E4.79333
G1 X87.932 Y87.329 E4.85335
G1 X89.665 Y85.094 E4.91336
G1 X91.764 Y82.200 E4.98923
G1 X91.805 Y82.142 E4.99074
G1 X92.123 Y81.716 E5.00202
G0 F3000.00000 X91.549 Y83.355
G1 F1800.000 X92.379 Y82.191 E5.03235
G1 X92.483 Y82.062 E5.03587
G1 X92.703 Y81.811 E5.04295
G1 X92.832 Y81.694 E5.04665
G1 X93.093 Y81.476 E5.05387
G1 X93.107 Y81.466 E5.05423
G1 X93.222 Y81.390 E5.05716
G1 X93.442 Y81.260 E5.06258
G1 X93.999 Y81.015 E5.07549
G1 X94.144 Y80.975 E5.07868
G1 X94.493 Y80.896 E5.08628
G1 X94.660 Y80.878 E5.08984
G1 X94.986 Y80.856 E5.09677
G1 X95.126 Y80.851 E5.09975
G1 X95.564 Y80.846 E5.10904
G1 X104.293 Y80.846 E5.29428
G1 X104.999 Y80.856 E5.30926
G1 X105.133 Y80.862 E5.31211
G1 X105.158 Y80.863 E5.31264
G1 X105.504 Y80.895 E5.32001
G1 X105.507 Y80.896 E5.32008
G1 X105.509 Y80.896 E5.32012
G1 X105.671 Y80.930 E5.32363
G1 X105.989 Y81.011 E5.33060
G1 X106.002 Y81.016 E5.33089
G1 X106.157 Y81.074 E5.33441
G1 X106.463 Y81.206 E5.34148
G1 X106.473 Y81.211 E5.34171
G1 X106.619 Y81.295 E5.34529
G1 X106.898 Y81.471 E5.35229
G1 X106.904 Y81.475 E5.35244
G1 X107.034 Y81.579 E5.35598
G1 X107.285 Y81.799 E5.36306
G1 X107.397 Y81.922 E5.36659
G1 X107.615 Y82.183 E5.37380
G1 X107.632 Y82.205 E5.37439
G1 X107.936 Y82.640 E5.38566
G1 X109.590 Y84.935 E5.44569
G1 X111.308 Y87.181 E5.50569
G1 X113.088 Y89.379 E5.56571
G1 X114.158 Y90.636 E5.60074
G1 X114.615 Y91.183 E5.61587
G1 X114.627 Y91.199 E5.61629
G1 X114.706 Y91.318 E5.61932
G1 X114.836 Y91.538 E5.62475
G1 X115.081 Y92.093 E5.63762
G1 X115.118 Y92.227 E5.64057
G1 X115.199 Y92.583 E5.64832
G1 X115.218 Y92.756 E5.65201
G1 X115.240 Y93.082 E5.65895
G1 X115.245 Y93.222 E5.66192
G1 X115.250 Y93.660 E5.67121
G1 X115.250 Y110.388 E6.02619
G1 X115.240 Y111.094 E6.04118
G1 X115.234 Y111.228 E6.04402
G1 X115.233 Y111.250 E6.04449
G1 X115.201 Y111.599 E6.05193
G1 X115.200 Y111.602 E6.05199
G1 X115.200 Y111.603 E6.05202
G1 X115.166 Y111.766 E6.05555
G1 X115.085 Y112.084 E6.06251
G1 X115.080 Y112.097 E6.06281
G1 X115.023 Y112.248 E6.06623
G1 X114.890 Y112.558 E6.07339
G1 X114.885 Y112.568 E6.07363
G1 X114.801 Y112.714 E6.07720
G1 X114.619 Y113.002 E6.08443
G1 X114.621 Y113.000 E6.08449
G1 X114.517 Y113.129 E6.08801
G1 X114.297 Y113.380 E6.09509
G1 X114.296 Y113.380 E6.09511
G1 X114.168 Y113.497 E6.09879
G1 X113.907 Y113.715 E6.10601
G1 X113.900 Y113.720 E6.10619
G1 X113.896 Y113.723 E6.10630
G1 X113.782 Y113.798 E6.10919
G1 X113.558 Y113.931 E6.11472
G1 X113.001 Y114.176 E6.12763
G1 X112.856 Y114.216 E6.13083
G1 X112.507 Y114.295 E6.13842
G1 X112.340 Y114.313 E6.14198
G1 X112.014 Y114.335 E6.14892
G1 X111.874 Y114.340 E6.15189
G1 X111.436 Y114.345 E6.16119
G1 X105.127 Y114.345 E6.29507
G1 X103.108 Y114.342 E6.33791
G1 X102.861 Y114.345 E6.34315
G1 X96.627 Y114.345 E6.47544
G1 X94.608 Y114.342 E6.51829
G1 X94.361 Y114.345 E6.52353
G1 X88.707 Y114.345 E6.64351
G1 X88.001 Y114.335 E6.65849
G1 X87.867 Y114.329 E6.66134
G1 X87.842 Y114.328 E6.66187
G1 X87.496 Y114.296 E6.66925
G1 X87.493 Y114.295 E6.66931
G1 X87.491 Y114.295 E6.66936
G1 X87.329 Y114.261 E6.67287
G1 X87.011 Y114.180 E6.67983
G1 X86.998 Y114.175 E6.68013
G1 X86.843 Y114.117 E6.68364
G1 X86.537 Y113.985 E6.69071
G1 X86.527 Y113.980 E6.69095
G1 X86.381 Y113.896 E6.69452
G1 X86.096 Y113.716 E6.70168
G1 X86.093 Y113.714 E6.70175
G1 X85.966 Y113.612 E6.70521
G1 X85.712 Y113.389 E6.71238
G1 X85.589 Y113.253 E6.71627
G1 X85.380 Y113.002 E6.72320
G1 X85.369 Y112.987 E6.72360
G1 X85.294 Y112.872 E6.72651
G1 X85.164 Y112.653 E6.73192
G1 X84.919 Y112.096 E6.74483
G1 X84.879 Y111.951 E6.74802
G1 X84.800 Y111.602 E6.75561
G1 X84.782 Y111.435 E6.75918
G1 X84.760 Y111.109 E6.76611
G1 X84.755 Y110.969 E6.76909
G1 X84.750 Y110.531 E6.77838
G1 X84.750 Y93.803 E7.13336
G1 X84.760 Y93.096 E7.14836
G1 X84.767 Y92.940 E7.15168
G1 X84.767 Y92.938 E7.15172
G1 X84.800 Y92.588 E7.15918
G1 X84.801 Y92.583 E7.15929
G1 X84.834 Y92.425 E7.16271
G1 X84.915 Y92.107 E7.16968
G1 X84.920 Y92.093 E7.16999
G1 X84.978 Y91.939 E7.17349
G1 X85.110 Y91.633 E7.18056
G1 X85.118 Y91.618 E7.18092
G1 X85.199 Y91.477 E7.18437
G1 X85.379 Y91.192 E7.19152
G1 X85.382 Y91.188 E7.19163
G1 X85.582 Y90.938 E7.19842
G1 X85.599 Y90.918 E7.19898
G1 X87.107 Y89.147 E7.24834
G1 X88.879 Y86.942 E7.30837
G1 X90.588 Y84.688 E7.36839
G1 X91.535 Y83.345 E7.40327
G1 X91.549 Y83.355 E7.40363
G1 F1500.00000 E6.40363
G0 F3000.00000 X93.462 Y84.033
G0 X95.750 Y84.846
G0 X95.778 Y84.874
G0 X95.820 Y84.916
G0 X95.750 Y84.846
;TYPE:WALL-INNER
G1 F1500.000 E7.40363
G1 F1800.00000 X104.250 Y84.846 E7.58401
G1 X104.250 Y93.846 E7.77499
G1 X111.250 Y93.846 E7.92354
G1 X111.250 Y97.678 E8.00485
G1 X110.909 Y97.770 E8.01235
G1 X110.086 Y96.346 E8.04725
G1 X106.913 Y96.346 E8.11458
G1 X105.323 Y99.096 E8.18199
G1 X106.913 Y101.845 E8.24938
G1 X110.086 Y101.845 E8.31672
G1 X110.909 Y100.421 E8.35162
G1 X111.250 Y100.513 E8.35911
G1 X111.250 Y110.345 E8.56776
G1 X105.750 Y110.345 E8.68447
G1 X105.750 Y107.345 E8.74813
G1 X101.250 Y107.345 E8.84362
G1 X101.250 Y110.345 E8.90729
G1 X98.750 Y110.345 E8.96034
G1 X98.750 Y107.345 E9.02400
G1 X94.250 Y107.345 E9.11949
G1 X94.250 Y110.345 E9.18315
G1 X88.750 Y110.345 E9.29987
G1 X88.750 Y99.648 E9.52687
G1 X89.091 Y99.556 E9.53436
G1 X90.414 Y101.845 E9.59046
G1 X93.587 Y101.845 E9.65780
G1 X95.177 Y99.096 E9.72519
G1 X93.587 Y96.346 E9.79260
G1 X90.414 Y96.346 E9.85993
G1 X89.091 Y98.635 E9.91603
G1 X88.750 Y98.543 E9.92353
G1 X88.750 Y93.846 E10.02320
G1 X95.750 Y93.846 E10.17175
G1 X95.750 Y84.846 E10.36273
G0 F3000.00000 X95.250 Y84.346
;TYPE:WALL-OUTER
G1 F1800.000 X104.750 Y84.346 E10.56433
G1 X104.750 Y93.346 E10.75532
G1 X111.750 Y93.346 E10.90386
G1 X111.750 Y110.845 E11.27520
G1 X105.250 Y110.845 E11.41313
G1 X105.250 Y107.845 E11.47680
G1 X101.750 Y107.845 E11.55107
G1 X101.750 Y110.345 E11.60412
G1 X103.250 Y110.345 E11.63595
G1 X103.250 Y110.845 E11.64656
G1 X101.750 Y110.845 E11.67839
G1 X96.750 Y110.845 E11.78450
G1 X96.750 Y110.345 E11.79511
G1 X98.250 Y110.345 E11.82694
G1 X98.250 Y107.845 E11.87999
G1 X94.750 Y107.845 E11.95426
G1 X94.750 Y110.845 E12.01792
G1 X88.250 Y110.845 E12.15586
G1 X88.250 Y93.346 E12.52720
G1 X95.250 Y93.346 E12.67574
G1 X95.250 Y84.346 E12.86673
G0 F3000.00000 X95.850 Y84.916
G0 X95.778 Y93.874
G0 X93.818 Y96.546
G0 X93.299 Y96.846
G1 F1800.000 X90.702 Y96.846 E12.92184
G1 X89.402 Y99.096 E12.97698
G1 X90.702 Y101.345 E13.03211
G1 X93.299 Y101.345 E13.08722
G1 X94.599 Y99.096 E13.14234
G1 X93.299 Y96.846 E13.19748
G0 F3000.00000 X93.818 Y96.546
G0 X105.382 Y98.795
G0 X105.901 Y99.096
