;FLAVOR:RepRap
;TIME:888
M190 S50.000000
M104 S235.000000
M109 S235.000000
G21 ;metric values
G90 ;absolute positioning
M82 ;set extruder to absolute mode
M107 ;start with the fan off
G28 X0 Y0 ;move X/Y to min endstops
G28 Z0 ;move Z to min endstops
G1 Z15.0 F9000 ;move the platform down 15mm
G92 E0 ;zero the extruded length
G1 F200 E3 ;extrude 3mm of feed stock
G92 E0 ;zero the extruded length again
G1 F9000
;Put printing message on LCD screen
M117 Printing...
;Generated with Cura_SteamEngine 2.1.0-
;LAYER_COUNT:59
;LAYER:0
M107
G0 F3000.000000 X103.870 Y87.290 Z0.300
G0 X103.060 Y88.837
;TYPE:SKIRT
G1 F1800.000 X103.090 Y88.741 E0.00213
G1 X103.128 Y88.631 E0.00460
G1 X103.256 Y88.288 E0.01237
G1 X103.287 Y88.223 E0.01390
G1 X103.373 Y88.053 E0.01794
G1 X103.518 Y87.785 E0.02441
G1 X103.529 Y87.767 E0.02486
G1 X103.568 Y87.707 E0.02638
G1 X103.637 Y87.608 E0.02894
G1 X103.865 Y87.296 E0.03714
G1 X103.870 Y87.290 E0.03730
G1 X103.924 Y87.228 E0.03905
G1 X103.996 Y87.150 E0.04130
G1 X104.265 Y86.872 E0.04951
G1 X104.332 Y86.814 E0.05139
G1 X104.409 Y86.751 E0.05350
G1 X104.709 Y86.516 E0.06159
G1 X104.722 Y86.506 E0.06194
G1 X104.812 Y86.448 E0.06421
G1 X104.887 Y86.402 E0.06608
G1 X105.204 Y86.218 E0.07385
G1 X105.227 Y86.206 E0.07440
G1 X105.331 Y86.157 E0.07684
G1 X105.391 Y86.130 E0.07824
G1 X105.734 Y85.989 E0.08611
G1 X105.745 Y85.985 E0.08636
G1 X105.851 Y85.952 E0.08871
G1 X105.925 Y85.930 E0.09035
G1 X106.304 Y85.832 E0.09866
G1 X106.330 Y85.828 E0.09922
G1 X106.698 Y85.786 E0.10708
G1 X106.940 Y85.766 E0.11223
G1 X108.210 Y85.739 E0.13919
G1 X130.433 Y85.739 E0.61077
G1 X130.823 Y85.745 E0.61905
G1 X131.707 Y85.787 E0.63783
G1 X131.719 Y85.789 E0.63809
G1 X131.731 Y85.790 E0.63834
G1 X131.838 Y85.809 E0.64065
G1 X131.895 Y85.820 E0.64188
G1 X132.288 Y85.907 E0.65042
G1 X132.383 Y85.937 E0.65254
G1 X132.498 Y85.977 E0.65512
G1 X132.840 Y86.105 E0.66287
G1 X132.906 Y86.136 E0.66442
G1 X133.051 Y86.209 E0.66786
G1 X133.332 Y86.361 E0.67464
G1 X133.362 Y86.378 E0.67537
G1 X133.416 Y86.413 E0.67674
G1 X133.521 Y86.486 E0.67945
G1 X133.831 Y86.712 E0.68759
G1 X133.901 Y86.773 E0.68956
G1 X133.977 Y86.843 E0.69176
G1 X134.256 Y87.114 E0.70001
G1 X134.298 Y87.161 E0.70135
G1 X134.378 Y87.258 E0.70402
G1 X134.610 Y87.554 E0.71200
G1 X134.623 Y87.571 E0.71245
G1 X134.676 Y87.653 E0.71452
G1 X134.719 Y87.722 E0.71625
G1 X134.911 Y88.053 E0.72437
G1 X134.921 Y88.072 E0.72482
G1 X134.969 Y88.172 E0.72718
G1 X134.999 Y88.240 E0.72876
G1 X135.137 Y88.575 E0.73644
G1 X135.142 Y88.589 E0.73676
G1 X135.170 Y88.675 E0.73868
G1 X135.194 Y88.757 E0.74049
G1 X135.296 Y89.151 E0.74913
G1 X135.301 Y89.179 E0.74973
G1 X135.343 Y89.547 E0.75759
G1 X135.363 Y89.789 E0.76275
G1 X135.390 Y91.059 E0.78970
G1 X135.390 Y105.281 E1.09150
G1 X135.384 Y105.671 E1.09978
G1 X135.342 Y106.555 E1.11856
G1 X135.340 Y106.567 E1.11882
G1 X135.340 Y106.569 E1.11886
G1 X135.323 Y106.672 E1.12107
G1 X135.309 Y106.743 E1.12261
G1 X135.222 Y107.136 E1.13115
G1 X135.195 Y107.220 E1.13302
G1 X135.152 Y107.346 E1.13585
G1 X135.024 Y107.688 E1.14360
G1 X134.993 Y107.754 E1.14515
G1 X134.928 Y107.884 E1.14823
G1 X134.768 Y108.180 E1.15537
G1 X134.763 Y108.190 E1.15561
G1 X134.754 Y108.205 E1.15598
G1 X134.712 Y108.270 E1.15762
G1 X134.643 Y108.369 E1.16018
G1 X134.417 Y108.679 E1.16832
G1 X134.367 Y108.736 E1.16993
G1 X134.294 Y108.816 E1.17223
G1 X134.015 Y109.104 E1.18074
G1 X133.954 Y109.158 E1.18247
G1 X133.871 Y109.226 E1.18475
G1 X133.571 Y109.461 E1.19283
G1 X133.558 Y109.471 E1.19318
G1 X133.476 Y109.524 E1.19525
G1 X133.407 Y109.567 E1.19698
G1 X133.076 Y109.759 E1.20510
G1 X133.063 Y109.766 E1.20541
G1 X132.957 Y109.817 E1.20791
G1 X132.889 Y109.847 E1.20948
G1 X132.546 Y109.988 E1.21735
G1 X132.542 Y109.989 E1.21744
G1 X132.538 Y109.991 E1.21754
G1 X132.429 Y110.025 E1.21996
G1 X132.355 Y110.047 E1.22160
G1 X131.976 Y110.145 E1.22990
G1 X131.950 Y110.149 E1.23046
G1 X131.582 Y110.191 E1.23832
G1 X131.340 Y110.211 E1.24348
G1 X130.070 Y110.238 E1.27043
G1 X123.140 Y110.238 E1.41749
G1 X123.140 Y110.241 E1.41756
G1 X122.140 Y110.245 E1.43878
G1 X122.140 Y110.238 E1.43892
G1 X116.140 Y110.238 E1.56625
G1 X116.140 Y110.241 E1.56631
G1 X115.140 Y110.245 E1.58753
G1 X115.140 Y110.238 E1.58768
G1 X107.847 Y110.238 E1.74244
G1 X107.457 Y110.232 E1.75072
G1 X106.573 Y110.190 E1.76950
G1 X106.561 Y110.188 E1.76976
G1 X106.549 Y110.187 E1.77001
G1 X106.442 Y110.168 E1.77232
G1 X106.385 Y110.157 E1.77355
G1 X105.992 Y110.070 E1.78209
G1 X105.897 Y110.040 E1.78421
G1 X105.782 Y110.000 E1.78679
G1 X105.440 Y109.872 E1.79454
G1 X105.363 Y109.836 E1.79634
G1 X105.225 Y109.766 E1.79963
G1 X104.948 Y109.616 E1.80631
G1 X104.921 Y109.601 E1.80697
G1 X104.916 Y109.598 E1.80709
G1 X104.849 Y109.554 E1.80879
G1 X104.750 Y109.485 E1.81135
G1 X104.449 Y109.265 E1.81927
G1 X104.379 Y109.204 E1.82124
G1 X104.301 Y109.132 E1.82349
G1 X104.024 Y108.863 E1.83168
G1 X103.970 Y108.802 E1.83341
G1 X103.895 Y108.711 E1.83591
G1 X103.667 Y108.419 E1.84378
G1 X103.652 Y108.398 E1.84432
G1 X103.604 Y108.324 E1.84619
G1 X103.554 Y108.243 E1.84821
G1 X103.369 Y107.924 E1.85604
G1 X103.359 Y107.905 E1.85650
G1 X103.309 Y107.800 E1.85896
G1 X103.281 Y107.737 E1.86043
G1 X103.140 Y107.393 E1.86832
G1 X103.138 Y107.388 E1.86843
G1 X103.136 Y107.382 E1.86856
G1 X103.098 Y107.262 E1.87124
G1 X103.081 Y107.203 E1.87254
G1 X102.983 Y106.824 E1.88085
G1 X102.979 Y106.798 E1.88140
G1 X102.936 Y106.416 E1.88956
G1 X102.917 Y106.188 E1.89442
G1 X102.890 Y104.918 E1.92137
G1 X102.890 Y90.696 E2.22317
G1 X102.896 Y90.306 E2.23145
G1 X102.938 Y89.421 E2.25025
G1 X102.940 Y89.408 E2.25053
G1 X102.941 Y89.398 E2.25074
G1 X102.960 Y89.289 E2.25309
G1 X102.971 Y89.234 E2.25428
G1 X103.059 Y88.840 E2.26285
G1 X103.059 Y88.837 E2.26291
G1 X103.060 Y88.837 E2.26293
G0 F3000.00000 X103.527 Y89.040
G1 F1800.000 X103.551 Y88.941 E2.26510
G1 X103.681 Y88.584 E2.27316
G1 X103.740 Y88.435 E2.27656
G1 X103.957 Y88.033 E2.28625
G1 X103.995 Y87.967 E2.28787
G1 X104.263 Y87.609 E2.29736
G1 X104.343 Y87.509 E2.30008
G1 X104.595 Y87.258 E2.30762
G1 X104.730 Y87.131 E2.31156
G1 X105.036 Y86.905 E2.31963
G1 X105.154 Y86.822 E2.32269
G1 X105.556 Y86.607 E2.33237
G1 X105.656 Y86.557 E2.33474
G1 X106.008 Y86.431 E2.34267
G1 X106.158 Y86.382 E2.34602
G1 X106.567 Y86.299 E2.35488
G1 X106.605 Y86.293 E2.35569
G1 X107.189 Y86.248 E2.36812
G1 X107.862 Y86.239 E2.38241
G1 X130.433 Y86.239 E2.86138
G1 X131.139 Y86.249 E2.87636
G1 X131.315 Y86.256 E2.88010
G1 X131.654 Y86.286 E2.88732
G1 X132.061 Y86.370 E2.89614
G1 X132.188 Y86.400 E2.89891
G1 X132.538 Y86.527 E2.90681
G1 X132.694 Y86.589 E2.91037
G1 X133.088 Y86.801 E2.91987
G1 X133.162 Y86.844 E2.92168
G1 X133.502 Y87.098 E2.93069
G1 X133.619 Y87.191 E2.93386
G1 X133.871 Y87.444 E2.94144
G1 X133.998 Y87.579 E2.94537
G1 X134.224 Y87.885 E2.95344
G1 X134.307 Y88.003 E2.95650
G1 X134.522 Y88.405 E2.96618
G1 X134.572 Y88.505 E2.96855
G1 X134.698 Y88.857 E2.97648
G1 X134.747 Y89.007 E2.97983
G1 X134.830 Y89.416 E2.98869
G1 X134.836 Y89.454 E2.98951
G1 X134.881 Y90.038 E3.00194
G1 X134.890 Y90.711 E3.01622
G1 X134.890 Y105.260 E3.32496
G1 X134.880 Y105.987 E3.34039
G1 X134.873 Y106.163 E3.34412
G1 X134.843 Y106.502 E3.35135
G1 X134.759 Y106.909 E3.36017
G1 X134.729 Y107.036 E3.36293
G1 X134.607 Y107.373 E3.37054
G1 X134.540 Y107.542 E3.37440
G1 X134.333 Y107.926 E3.38366
G1 X134.285 Y108.010 E3.38571
G1 X134.025 Y108.358 E3.39493
G1 X133.938 Y108.467 E3.39789
G1 X133.690 Y108.714 E3.40531
G1 X133.552 Y108.844 E3.40934
G1 X133.244 Y109.072 E3.41747
G1 X133.126 Y109.155 E3.42053
G1 X132.724 Y109.370 E3.43020
G1 X132.624 Y109.420 E3.43258
G1 X132.272 Y109.546 E3.44051
G1 X132.122 Y109.595 E3.44386
G1 X131.713 Y109.678 E3.45272
G1 X131.675 Y109.684 E3.45353
G1 X131.091 Y109.729 E3.46596
G1 X130.418 Y109.738 E3.48024
G1 X123.140 Y109.738 E3.63469
G1 X123.140 Y109.741 E3.63475
G1 X122.140 Y109.741 E3.65597
G1 X122.140 Y109.738 E3.65604
G1 X116.140 Y109.738 E3.78336
G1 X116.140 Y109.741 E3.78342
G1 X115.140 Y109.741 E3.80464
G1 X115.140 Y109.738 E3.80471
G1 X107.847 Y109.738 E3.95947
G1 X107.141 Y109.728 E3.97445
G1 X106.965 Y109.721 E3.97819
G1 X106.626 Y109.691 E3.98541
G1 X106.219 Y109.607 E3.99423
G1 X106.092 Y109.577 E3.99700
G1 X105.739 Y109.449 E4.00497
G1 X105.586 Y109.388 E4.00846
G1 X105.187 Y109.173 E4.01808
G1 X105.118 Y109.133 E4.01978
G1 X104.770 Y108.873 E4.02899
G1 X104.661 Y108.786 E4.03195
G1 X104.409 Y108.533 E4.03953
G1 X104.282 Y108.398 E4.04346
G1 X104.048 Y108.082 E4.05181
G1 X103.973 Y107.974 E4.05460
G1 X103.758 Y107.572 E4.06427
G1 X103.708 Y107.472 E4.06665
G1 X103.582 Y107.120 E4.07458
G1 X103.533 Y106.970 E4.07793
G1 X103.450 Y106.561 E4.08678
G1 X103.444 Y106.523 E4.08760
G1 X103.399 Y105.939 E4.10003
G1 X103.390 Y105.260 E4.11444
G1 X103.390 Y90.696 E4.42350
G1 X103.400 Y89.989 E4.43850
G1 X103.407 Y89.814 E4.44222
G1 X103.437 Y89.475 E4.44944
G1 X103.527 Y89.040 E4.45887
G0 F3000.00000 X103.907 Y89.833
G1 F1800.000 X103.907 Y89.831 E4.45891
G1 X103.940 Y89.481 E4.46637
G1 X103.941 Y89.476 E4.46648
G1 X103.974 Y89.318 E4.46990
G1 X104.055 Y89.000 E4.47687
G1 X104.060 Y88.986 E4.47718
G1 X104.118 Y88.832 E4.48067
G1 X104.250 Y88.526 E4.48775
G1 X104.258 Y88.511 E4.48811
G1 X104.339 Y88.370 E4.49156
G1 X104.519 Y88.085 E4.49871
G1 X104.522 Y88.081 E4.49882
G1 X104.623 Y87.955 E4.50224
G1 X104.843 Y87.704 E4.50933
G1 X104.972 Y87.587 E4.51302
G1 X105.233 Y87.369 E4.52024
G1 X105.247 Y87.359 E4.52060
G1 X105.362 Y87.283 E4.52353
G1 X105.582 Y87.153 E4.52895
G1 X106.139 Y86.908 E4.54186
G1 X106.284 Y86.868 E4.54506
G1 X106.633 Y86.789 E4.55265
G1 X106.800 Y86.771 E4.55621
G1 X107.126 Y86.749 E4.56315
G1 X107.266 Y86.744 E4.56612
G1 X107.704 Y86.739 E4.57542
G1 X130.433 Y86.739 E5.05774
G1 X131.139 Y86.749 E5.07272
G1 X131.273 Y86.755 E5.07557
G1 X131.298 Y86.756 E5.07610
G1 X131.644 Y86.788 E5.08347
G1 X131.647 Y86.789 E5.08354
G1 X131.649 Y86.789 E5.08358
G1 X131.811 Y86.823 E5.08710
G1 X132.129 Y86.904 E5.09406
G1 X132.142 Y86.909 E5.09436
G1 X132.297 Y86.967 E5.09787
G1 X132.603 Y87.099 E5.10494
G1 X132.613 Y87.104 E5.10518
G1 X132.759 Y87.188 E5.10875
G1 X133.038 Y87.364 E5.11575
G1 X133.044 Y87.368 E5.11590
G1 X133.174 Y87.472 E5.11944
G1 X133.425 Y87.692 E5.12652
G1 X133.542 Y87.821 E5.13022
G1 X133.755 Y88.076 E5.13727
G1 X133.767 Y88.092 E5.13769
G1 X133.845 Y88.210 E5.14069
G1 X133.976 Y88.431 E5.14614
G1 X134.221 Y88.986 E5.15902
G1 X134.258 Y89.120 E5.16197
G1 X134.339 Y89.476 E5.16972
G1 X134.358 Y89.649 E5.17341
G1 X134.380 Y89.975 E5.18034
G1 X134.385 Y90.115 E5.18332
G1 X134.390 Y90.553 E5.19261
G1 X134.390 Y105.281 E5.50515
G1 X134.380 Y105.987 E5.52013
G1 X134.374 Y106.121 E5.52298
G1 X134.373 Y106.143 E5.52345
G1 X134.341 Y106.492 E5.53088
G1 X134.340 Y106.495 E5.53095
G1 X134.340 Y106.496 E5.53097
G1 X134.306 Y106.659 E5.53450
G1 X134.225 Y106.977 E5.54147
G1 X134.220 Y106.990 E5.54176
G1 X134.163 Y107.141 E5.54519
G1 X134.030 Y107.451 E5.55235
G1 X134.025 Y107.461 E5.55258
G1 X133.941 Y107.607 E5.55616
G1 X133.759 Y107.895 E5.56339
G1 X133.761 Y107.893 E5.56345
G1 X133.657 Y108.022 E5.56696
G1 X133.437 Y108.273 E5.57405
G1 X133.436 Y108.273 E5.57407
G1 X133.308 Y108.390 E5.57775
G1 X133.047 Y108.608 E5.58496
G1 X133.040 Y108.613 E5.58515
G1 X133.036 Y108.616 E5.58525
G1 X132.922 Y108.691 E5.58815
G1 X132.698 Y108.824 E5.59368
G1 X132.141 Y109.069 E5.60659
G1 X131.996 Y109.109 E5.60978
G1 X131.647 Y109.188 E5.61738
G1 X131.480 Y109.206 E5.62094
G1 X131.154 Y109.228 E5.62787
G1 X131.014 Y109.233 E5.63085
G1 X130.576 Y109.238 E5.64014
G1 X123.140 Y109.238 E5.79794
G1 X123.140 Y109.241 E5.79800
G1 X122.140 Y109.240 E5.81922
G1 X122.140 Y109.238 E5.81927
G1 X116.140 Y109.238 E5.94659
G1 X116.140 Y109.241 E5.94665
G1 X115.140 Y109.240 E5.96787
G1 X115.140 Y109.238 E5.96792
G1 X107.847 Y109.238 E6.12268
G1 X107.141 Y109.228 E6.13766
G1 X107.007 Y109.222 E6.14051
G1 X106.982 Y109.221 E6.14104
G1 X106.636 Y109.189 E6.14841
G1 X106.633 Y109.188 E6.14848
G1 X106.631 Y109.188 E6.14852
G1 X106.469 Y109.154 E6.15203
G1 X106.151 Y109.073 E6.15900
G1 X106.138 Y109.068 E6.15929
G1 X105.983 Y109.010 E6.16281
G1 X105.677 Y108.878 E6.16988
G1 X105.667 Y108.873 E6.17012
G1 X105.521 Y108.789 E6.17369
G1 X105.236 Y108.609 E6.18084
G1 X105.233 Y108.607 E6.18092
G1 X105.106 Y108.505 E6.18438
G1 X104.852 Y108.282 E6.19155
G1 X104.729 Y108.146 E6.19544
G1 X104.520 Y107.895 E6.20237
G1 X104.509 Y107.880 E6.20277
G1 X104.434 Y107.765 E6.20568
G1 X104.304 Y107.546 E6.21108
G1 X104.059 Y106.989 E6.22400
G1 X104.019 Y106.844 E6.22719
G1 X103.940 Y106.495 E6.23478
G1 X103.922 Y106.328 E6.23835
G1 X103.900 Y106.002 E6.24528
G1 X103.895 Y105.862 E6.24825
G1 X103.890 Y105.424 E6.25755
G1 X103.890 Y90.696 E6.57009
G1 X103.900 Y89.989 E6.58509
G1 X103.907 Y89.833 E6.58840
G1 F1500.00000 E2.08840
G0 F3000.00000 X105.600 Y90.217
G0 X107.890 Y90.739
G0 X107.918 Y90.767
G0 X107.960 Y90.809
G0 X107.890 Y90.739
;TYPE:WALL-INNER
G1 F1500.000 E6.58840
G1 F1800.00000 X130.390 Y90.739 E7.06587
G1 X130.390 Y105.238 E7.37355
G1 X125.890 Y105.238 E7.46904
G1 X125.890 Y101.488 E7.54862
G1 X121.390 Y101.488 E7.64411
G1 X121.390 Y105.238 E7.72369
G1 X116.890 Y105.238 E7.81918
G1 X116.890 Y101.488 E7.89876
G1 X112.390 Y101.488 E7.99425
G1 X112.390 Y105.238 E8.07383
G1 X107.890 Y105.238 E8.16932
G1 X107.890 Y90.739 E8.47700
G0 F3000.00000 X107.990 Y90.809
G0 X111.140 Y94.062
G1 F1800.000 X109.307 Y95.393 E8.52507
G1 X110.007 Y97.548 E8.57315
G1 X112.272 Y97.548 E8.62122
G1 X112.972 Y95.394 E8.66928
G1 X111.140 Y94.062 E8.71735
G0 F3000.00000 X125.712 Y95.363
G0 X125.807 Y95.393
G1 F1800.000 X126.507 Y97.548 E8.76543
G1 X128.772 Y97.548 E8.81349
G1 X129.472 Y95.394 E8.86156
G1 X127.640 Y94.062 E8.90962
G1 X125.807 Y95.393 E8.95769
G0 F3000.00000 X126.394 Y95.584
;TYPE:WALL-OUTER
G1 F1800.000 X126.870 Y97.048 E8.99036
G1 X128.409 Y97.048 E9.02302
G1 X128.885 Y95.585 E9.05567
G1 X127.640 Y94.680 E9.08833
G1 X126.394 Y95.584 E9.12100
G0 F3000.00000 X125.823 Y95.767
G0 X125.990 Y101.988
G0 X125.390 Y101.988
G1 F1800.000 X121.890 Y101.988 E9.19527
G1 X121.890 Y105.738 E9.27485
G1 X116.390 Y105.738 E9.39156
G1 X116.390 Y101.988 E9.47114
G1 X112.890 Y101.988 E9.54541
G1 X112.890 Y104.488 E9.59846
G1 X114.890 Y104.488 E9.64090
G1 X114.890 Y105.738 E9.66743
G1 X107.390 Y105.738 E9.82658
G1 X107.390 Y90.239 E10.15548
G1 X130.890 Y90.239 E10.65417
G1 X130.890 Y105.738 E10.98307
G1 X123.390 Y105.738 E11.14222
G1 X123.390 Y104.488 E11.16875
G1 X125.390 Y104.488 E11.21119
G1 X125.390 Y101.988 E11.26424
G0 F3000.00000 X125.990 Y101.988
G0 X125.918 Y101.460
G0 X112.479 Y97.233
G0 X111.909 Y97.048
G1 F1800.000 X112.385 Y95.585 E11.29689
G1 X111.140 Y94.680 E11.32955
G1 X109.894 Y95.584 E11.36222
G1 X110.370 Y97.048 E11.39488
G1 X111.909 Y97.048 E11.42754
G0 F3000.00000 X111.890 Y97.748
;TYPE:SKIN
G1 F1800.000 X115.430 Y101.288 E11.53378
G0 X115.518 Y101.376
G0 F3000.000 X116.137 Y101.288
G1 F1800.000 X112.460 Y97.611 E11.64413
G0 X112.372 Y97.523
G0 F3000.000 X112.633 Y97.077
G1 F1800.000 X116.844 Y101.288 E11.77050
G0 X116.932 Y101.376
G0 F3000.000 X117.089 Y101.532
G1 F1800.000 X120.594 Y105.037 E11.87569
G0 X120.682 Y105.125
G0 F3000.000 X121.189 Y104.926
G1 F1800.000 X112.807 Y96.544 E12.12724
G0 X112.719 Y96.456
G0 F3000.000 X112.980 Y96.010
G1 F1800.000 X121.189 Y104.219 E12.37360
G0 X121.277 Y104.307
G0 F3000.000 X121.189 Y103.511
G1 F1800.000 X113.154 Y95.476 E12.61473
G0 X113.066 Y95.388
G0 F3000.000 X112.429 Y94.751
G1 F1800.000 X108.616 Y90.938 E12.72916
G0 X108.528 Y90.850
G0 F3000.000 X108.089 Y91.118
G1 F1800.000 X110.933 Y93.963 E12.81453
G0 X111.021 Y94.051
G0 F3000.000 X110.523 Y94.260
G1 F1800.000 X108.089 Y91.825 E12.88759
G0 X108.001 Y91.737
G0 F3000.000 X108.089 Y92.532
G1 F1800.000 X110.114 Y94.557 E12.94836
G0 X110.202 Y94.645
G0 F3000.000 X109.704 Y94.854
G1 F1800.000 X108.089 Y93.239 E12.99682
G0 X108.001 Y93.151
G0 F3000.000 X108.089 Y93.946
G1 F1800.000 X109.294 Y95.152 E13.03300
G0 X109.382 Y95.240
G0 F3000.000 X109.226 Y95.791
