;FLAVOR:RepRap
;TIME:950
M190 S50.000000
M104 S235.000000
M109 S235.000000
G21 ;metric values
G90 ;absolute positioning
M82 ;set extruder to absolute mode
M107 ;start with the fan off
G28 X0 Y0 ;move X/Y to min endstops
G28 Z0 ;move Z to min endstops
G1 Z15.0 F9000 ;move the platform down 15mm
G92 E0 ;zero the extruded length
G1 F200 E3 ;extrude 3mm of feed stock
G92 E0 ;zero the extruded length again
G1 F9000
;Put printing message on LCD screen
M117 Printing...
;Generated with Cura_SteamEngine 2.1.0-
;LAYER_COUNT:59
;LAYER:0
M107
G0 F3000.000000 X85.126 Y87.884 Z0.300
G0 X83.921 Y89.849
;TYPE:SKIRT
G1 F1800.000 X83.951 Y89.753 E0.00213
G1 X83.989 Y89.643 E0.00460
G1 X84.117 Y89.300 E0.01237
G1 X84.148 Y89.235 E0.01390
G1 X84.234 Y89.065 E0.01794
G1 X84.379 Y88.797 E0.02441
G1 X84.390 Y88.779 E0.02486
G1 X84.429 Y88.719 E0.02638
G1 X84.498 Y88.620 E0.02894
G1 X84.726 Y88.308 E0.03714
G1 X84.731 Y88.302 E0.03730
G1 X84.785 Y88.240 E0.03905
G1 X84.857 Y88.162 E0.04130
G1 X85.126 Y87.884 E0.04951
G1 X85.193 Y87.826 E0.05139
G1 X85.270 Y87.763 E0.05350
G1 X85.570 Y87.528 E0.06159
G1 X85.583 Y87.518 E0.06194
G1 X85.673 Y87.460 E0.06421
G1 X85.748 Y87.414 E0.06608
G1 X86.065 Y87.230 E0.07385
G1 X86.088 Y87.218 E0.07440
G1 X86.192 Y87.169 E0.07684
G1 X86.252 Y87.142 E0.07824
G1 X86.595 Y87.001 E0.08611
G1 X86.606 Y86.997 E0.08636
G1 X86.712 Y86.964 E0.08871
G1 X86.786 Y86.942 E0.09035
G1 X87.165 Y86.844 E0.09866
G1 X87.191 Y86.840 E0.09922
G1 X87.559 Y86.798 E0.10708
G1 X87.801 Y86.778 E0.11223
G1 X89.071 Y86.751 E0.13919
G1 X111.292 Y86.751 E0.61073
G1 X111.682 Y86.757 E0.61901
G1 X112.566 Y86.799 E0.63779
G1 X112.578 Y86.801 E0.63805
G1 X112.590 Y86.802 E0.63830
G1 X112.697 Y86.821 E0.64061
G1 X112.754 Y86.832 E0.64184
G1 X113.147 Y86.919 E0.65038
G1 X113.242 Y86.949 E0.65250
G1 X113.357 Y86.989 E0.65508
G1 X113.699 Y87.117 E0.66283
G1 X113.765 Y87.148 E0.66438
G1 X113.910 Y87.221 E0.66782
G1 X114.191 Y87.373 E0.67460
G1 X114.221 Y87.390 E0.67533
G1 X114.275 Y87.425 E0.67670
G1 X114.380 Y87.498 E0.67941
G1 X114.690 Y87.724 E0.68755
G1 X114.760 Y87.785 E0.68952
G1 X114.836 Y87.855 E0.69172
G1 X115.115 Y88.126 E0.69997
G1 X115.157 Y88.173 E0.70131
G1 X115.237 Y88.270 E0.70397
G1 X115.469 Y88.566 E0.71196
G1 X115.482 Y88.583 E0.71241
G1 X115.535 Y88.665 E0.71448
G1 X115.578 Y88.734 E0.71621
G1 X115.770 Y89.065 E0.72433
G1 X115.780 Y89.084 E0.72478
G1 X115.828 Y89.184 E0.72714
G1 X115.858 Y89.252 E0.72871
G1 X115.996 Y89.587 E0.73640
G1 X116.001 Y89.601 E0.73672
G1 X116.029 Y89.687 E0.73864
G1 X116.053 Y89.769 E0.74045
G1 X116.155 Y90.163 E0.74909
G1 X116.160 Y90.191 E0.74969
G1 X116.202 Y90.559 E0.75755
G1 X116.222 Y90.801 E0.76270
G1 X116.249 Y92.071 E0.78966
G1 X116.249 Y108.292 E1.13388
G1 X116.243 Y108.682 E1.14216
G1 X116.201 Y109.566 E1.16094
G1 X116.199 Y109.578 E1.16119
G1 X116.199 Y109.580 E1.16124
G1 X116.182 Y109.683 E1.16345
G1 X116.168 Y109.754 E1.16499
G1 X116.081 Y110.147 E1.17353
G1 X116.054 Y110.231 E1.17540
G1 X116.011 Y110.357 E1.17823
G1 X115.883 Y110.699 E1.18598
G1 X115.852 Y110.765 E1.18752
G1 X115.787 Y110.895 E1.19061
G1 X115.627 Y111.191 E1.19775
G1 X115.622 Y111.201 E1.19799
G1 X115.613 Y111.216 E1.19836
G1 X115.571 Y111.281 E1.20000
G1 X115.502 Y111.380 E1.20256
G1 X115.276 Y111.690 E1.21070
G1 X115.226 Y111.747 E1.21231
G1 X115.153 Y111.827 E1.21461
G1 X114.874 Y112.115 E1.22312
G1 X114.813 Y112.169 E1.22485
G1 X114.730 Y112.237 E1.22712
G1 X114.430 Y112.472 E1.23521
G1 X114.417 Y112.482 E1.23556
G1 X114.335 Y112.535 E1.23763
G1 X114.266 Y112.578 E1.23936
G1 X113.935 Y112.770 E1.24748
G1 X113.922 Y112.777 E1.24779
G1 X113.816 Y112.828 E1.25028
G1 X113.748 Y112.858 E1.25186
G1 X113.405 Y112.999 E1.25973
G1 X113.401 Y113.000 E1.25982
G1 X113.397 Y113.002 E1.25991
G1 X113.288 Y113.036 E1.26234
G1 X113.214 Y113.058 E1.26398
G1 X112.835 Y113.156 E1.27228
G1 X112.809 Y113.160 E1.27284
G1 X112.441 Y113.202 E1.28070
G1 X112.199 Y113.222 E1.28585
G1 X110.929 Y113.249 E1.31281
G1 X104.633 Y113.249 E1.44642
G1 X103.311 Y113.244 E1.47447
G1 X102.592 Y113.249 E1.48973
G1 X97.135 Y113.249 E1.60553
G1 X95.813 Y113.244 E1.63358
G1 X95.094 Y113.249 E1.64884
G1 X88.708 Y113.249 E1.78436
G1 X88.318 Y113.243 E1.79263
G1 X87.434 Y113.201 E1.81141
G1 X87.422 Y113.199 E1.81167
G1 X87.410 Y113.198 E1.81193
G1 X87.303 Y113.179 E1.81423
G1 X87.246 Y113.168 E1.81546
G1 X86.853 Y113.081 E1.82401
G1 X86.758 Y113.051 E1.82612
G1 X86.643 Y113.011 E1.82870
G1 X86.301 Y112.883 E1.83645
G1 X86.224 Y112.847 E1.83826
G1 X86.086 Y112.777 E1.84154
G1 X85.809 Y112.627 E1.84822
G1 X85.782 Y112.612 E1.84888
G1 X85.777 Y112.609 E1.84900
G1 X85.710 Y112.565 E1.85071
G1 X85.611 Y112.496 E1.85327
G1 X85.310 Y112.276 E1.86118
G1 X85.240 Y112.215 E1.86315
G1 X85.162 Y112.143 E1.86540
G1 X84.885 Y111.874 E1.87359
G1 X84.831 Y111.813 E1.87532
G1 X84.756 Y111.722 E1.87783
G1 X84.528 Y111.430 E1.88569
G1 X84.513 Y111.409 E1.88623
G1 X84.465 Y111.335 E1.88811
G1 X84.415 Y111.254 E1.89013
G1 X84.230 Y110.935 E1.89795
G1 X84.220 Y110.916 E1.89841
G1 X84.170 Y110.811 E1.90088
G1 X84.142 Y110.748 E1.90234
G1 X84.001 Y110.404 E1.91023
G1 X83.999 Y110.399 E1.91034
G1 X83.997 Y110.393 E1.91048
G1 X83.959 Y110.273 E1.91315
G1 X83.942 Y110.214 E1.91445
G1 X83.844 Y109.835 E1.92276
G1 X83.840 Y109.809 E1.92332
G1 X83.797 Y109.427 E1.93147
G1 X83.778 Y109.199 E1.93633
G1 X83.751 Y107.929 E1.96328
G1 X83.751 Y91.708 E2.30750
G1 X83.757 Y91.318 E2.31578
G1 X83.799 Y90.433 E2.33458
G1 X83.801 Y90.420 E2.33486
G1 X83.802 Y90.410 E2.33508
G1 X83.821 Y90.301 E2.33742
G1 X83.832 Y90.246 E2.33861
G1 X83.920 Y89.852 E2.34718
G1 X83.920 Y89.849 E2.34724
G1 X83.921 Y89.849 E2.34727
G0 F3000.00000 X84.388 Y90.052
G1 F1800.000 X84.412 Y89.953 E2.34943
G1 X84.542 Y89.596 E2.35749
G1 X84.601 Y89.447 E2.36089
G1 X84.818 Y89.045 E2.37058
G1 X84.856 Y88.979 E2.37220
G1 X85.124 Y88.621 E2.38169
G1 X85.204 Y88.521 E2.38441
G1 X85.456 Y88.270 E2.39196
G1 X85.591 Y88.143 E2.39589
G1 X85.897 Y87.917 E2.40396
G1 X86.015 Y87.834 E2.40702
G1 X86.417 Y87.619 E2.41670
G1 X86.517 Y87.569 E2.41907
G1 X86.869 Y87.443 E2.42700
G1 X87.019 Y87.394 E2.43035
G1 X87.428 Y87.311 E2.43921
G1 X87.466 Y87.305 E2.44002
G1 X88.050 Y87.260 E2.45245
G1 X88.723 Y87.251 E2.46674
G1 X111.292 Y87.251 E2.94567
G1 X111.998 Y87.261 E2.96065
G1 X112.174 Y87.268 E2.96439
G1 X112.513 Y87.298 E2.97161
G1 X112.920 Y87.382 E2.98043
G1 X113.047 Y87.412 E2.98320
G1 X113.397 Y87.539 E2.99110
G1 X113.553 Y87.601 E2.99466
G1 X113.947 Y87.813 E3.00415
G1 X114.021 Y87.856 E3.00597
G1 X114.361 Y88.110 E3.01498
G1 X114.478 Y88.203 E3.01815
G1 X114.730 Y88.456 E3.02573
G1 X114.857 Y88.591 E3.02966
G1 X115.083 Y88.897 E3.03773
G1 X115.166 Y89.015 E3.04079
G1 X115.381 Y89.417 E3.05047
G1 X115.431 Y89.517 E3.05284
G1 X115.557 Y89.869 E3.06077
G1 X115.606 Y90.019 E3.06412
G1 X115.689 Y90.428 E3.07298
G1 X115.695 Y90.466 E3.07380
G1 X115.740 Y91.050 E3.08622
G1 X115.749 Y91.723 E3.10051
G1 X115.749 Y108.271 E3.45167
G1 X115.739 Y108.998 E3.46710
G1 X115.732 Y109.174 E3.47083
G1 X115.702 Y109.513 E3.47806
G1 X115.618 Y109.920 E3.48687
G1 X115.588 Y110.047 E3.48964
G1 X115.466 Y110.384 E3.49725
G1 X115.399 Y110.553 E3.50111
G1 X115.192 Y110.937 E3.51036
G1 X115.144 Y111.021 E3.51242
G1 X114.884 Y111.369 E3.52164
G1 X114.797 Y111.478 E3.52460
G1 X114.549 Y111.725 E3.53202
G1 X114.411 Y111.855 E3.53605
G1 X114.103 Y112.083 E3.54418
G1 X113.985 Y112.166 E3.54724
G1 X113.583 Y112.381 E3.55691
G1 X113.483 Y112.431 E3.55929
G1 X113.131 Y112.557 E3.56722
G1 X112.981 Y112.606 E3.57057
G1 X112.572 Y112.689 E3.57942
G1 X112.534 Y112.695 E3.58024
G1 X111.950 Y112.740 E3.59267
G1 X111.277 Y112.749 E3.60695
G1 X105.184 Y112.749 E3.73625
G1 X105.110 Y112.748 E3.73782
G1 X102.443 Y112.748 E3.79442
G1 X102.367 Y112.749 E3.79603
G1 X97.686 Y112.749 E3.89536
G1 X97.612 Y112.748 E3.89693
G1 X94.945 Y112.748 E3.95353
G1 X94.869 Y112.749 E3.95514
G1 X88.708 Y112.749 E4.08588
G1 X88.002 Y112.739 E4.10087
G1 X87.826 Y112.732 E4.10460
G1 X87.487 Y112.702 E4.11183
G1 X87.080 Y112.618 E4.12065
G1 X86.953 Y112.588 E4.12341
G1 X86.600 Y112.460 E4.13138
G1 X86.447 Y112.399 E4.13488
G1 X86.048 Y112.184 E4.14450
G1 X85.979 Y112.144 E4.14619
G1 X85.631 Y111.884 E4.15541
G1 X85.522 Y111.797 E4.15837
G1 X85.270 Y111.544 E4.16594
G1 X85.143 Y111.409 E4.16988
G1 X84.909 Y111.093 E4.17822
G1 X84.834 Y110.985 E4.18101
G1 X84.619 Y110.583 E4.19069
G1 X84.569 Y110.483 E4.19306
G1 X84.443 Y110.131 E4.20099
G1 X84.394 Y109.981 E4.20434
G1 X84.311 Y109.572 E4.21320
G1 X84.305 Y109.534 E4.21401
G1 X84.260 Y108.950 E4.22644
G1 X84.251 Y108.271 E4.24085
G1 X84.251 Y91.708 E4.59233
G1 X84.261 Y91.001 E4.60733
G1 X84.268 Y90.826 E4.61105
G1 X84.298 Y90.487 E4.61827
G1 X84.388 Y90.052 E4.62770
G0 F3000.00000 X84.768 Y90.845
G1 F1800.000 X84.768 Y90.843 E4.62774
G1 X84.801 Y90.493 E4.63520
G1 X84.802 Y90.488 E4.63531
G1 X84.835 Y90.330 E4.63874
G1 X84.916 Y90.012 E4.64570
G1 X84.921 Y89.998 E4.64601
G1 X84.979 Y89.844 E4.64951
G1 X85.111 Y89.538 E4.65658
G1 X85.119 Y89.523 E4.65694
G1 X85.200 Y89.382 E4.66039
G1 X85.380 Y89.097 E4.66754
G1 X85.383 Y89.093 E4.66765
G1 X85.484 Y88.967 E4.67108
G1 X85.704 Y88.716 E4.67816
G1 X85.833 Y88.599 E4.68185
G1 X86.094 Y88.381 E4.68907
G1 X86.108 Y88.371 E4.68944
G1 X86.223 Y88.295 E4.69236
G1 X86.443 Y88.165 E4.69778
G1 X87.000 Y87.920 E4.71070
G1 X87.145 Y87.880 E4.71389
G1 X87.494 Y87.801 E4.72148
G1 X87.661 Y87.783 E4.72505
G1 X87.987 Y87.761 E4.73198
G1 X88.127 Y87.756 E4.73495
G1 X88.565 Y87.751 E4.74425
G1 X111.292 Y87.751 E5.22653
G1 X111.998 Y87.761 E5.24151
G1 X112.132 Y87.767 E5.24436
G1 X112.157 Y87.768 E5.24489
G1 X112.503 Y87.800 E5.25226
G1 X112.506 Y87.801 E5.25233
G1 X112.508 Y87.801 E5.25237
G1 X112.670 Y87.835 E5.25589
G1 X112.988 Y87.916 E5.26285
G1 X113.001 Y87.921 E5.26315
G1 X113.156 Y87.979 E5.26666
G1 X113.462 Y88.111 E5.27373
G1 X113.472 Y88.116 E5.27397
G1 X113.618 Y88.200 E5.27754
G1 X113.897 Y88.376 E5.28454
G1 X113.903 Y88.380 E5.28469
G1 X114.033 Y88.484 E5.28823
G1 X114.284 Y88.704 E5.29531
G1 X114.401 Y88.833 E5.29901
G1 X114.614 Y89.088 E5.30606
G1 X114.626 Y89.104 E5.30648
G1 X114.704 Y89.222 E5.30948
G1 X114.835 Y89.443 E5.31493
G1 X115.080 Y89.998 E5.32781
G1 X115.117 Y90.132 E5.33076
G1 X115.198 Y90.488 E5.33851
G1 X115.217 Y90.661 E5.34220
G1 X115.239 Y90.987 E5.34913
G1 X115.244 Y91.127 E5.35211
G1 X115.249 Y91.565 E5.36140
G1 X115.249 Y108.292 E5.71636
G1 X115.239 Y108.998 E5.73134
G1 X115.233 Y109.132 E5.73419
G1 X115.232 Y109.154 E5.73466
G1 X115.200 Y109.503 E5.74209
G1 X115.199 Y109.506 E5.74216
G1 X115.199 Y109.507 E5.74218
G1 X115.165 Y109.670 E5.74571
G1 X115.084 Y109.988 E5.75268
G1 X115.079 Y110.001 E5.75297
G1 X115.022 Y110.152 E5.75640
G1 X114.889 Y110.462 E5.76356
G1 X114.884 Y110.472 E5.76379
G1 X114.800 Y110.618 E5.76737
G1 X114.618 Y110.906 E5.77460
G1 X114.620 Y110.904 E5.77466
G1 X114.516 Y111.033 E5.77818
G1 X114.296 Y111.284 E5.78526
G1 X114.295 Y111.284 E5.78528
G1 X114.167 Y111.401 E5.78896
G1 X113.906 Y111.619 E5.79618
G1 X113.899 Y111.624 E5.79636
G1 X113.895 Y111.627 E5.79646
G1 X113.781 Y111.702 E5.79936
G1 X113.557 Y111.835 E5.80489
G1 X113.000 Y112.080 E5.81780
G1 X112.855 Y112.120 E5.82099
G1 X112.506 Y112.199 E5.82859
G1 X112.339 Y112.217 E5.83215
G1 X112.013 Y112.239 E5.83908
G1 X111.873 Y112.244 E5.84206
G1 X111.435 Y112.249 E5.85135
G1 X104.626 Y112.249 E5.99584
G1 X102.607 Y112.246 E6.03869
G1 X102.360 Y112.249 E6.04393
G1 X97.128 Y112.249 E6.15496
G1 X95.109 Y112.246 E6.19780
G1 X94.862 Y112.249 E6.20304
G1 X88.708 Y112.249 E6.33364
G1 X88.002 Y112.239 E6.34862
G1 X87.868 Y112.233 E6.35146
G1 X87.843 Y112.232 E6.35200
G1 X87.497 Y112.200 E6.35937
G1 X87.494 Y112.199 E6.35944
G1 X87.492 Y112.199 E6.35948
G1 X87.330 Y112.165 E6.36299
G1 X87.012 Y112.084 E6.36996
G1 X86.999 Y112.079 E6.37025
G1 X86.844 Y112.021 E6.37376
G1 X86.538 Y111.889 E6.38083
G1 X86.528 Y111.884 E6.38107
G1 X86.382 Y111.800 E6.38465
G1 X86.097 Y111.620 E6.39180
G1 X86.094 Y111.618 E6.39188
G1 X85.967 Y111.516 E6.39533
G1 X85.713 Y111.293 E6.40251
G1 X85.590 Y111.157 E6.40640
G1 X85.381 Y110.906 E6.41333
G1 X85.370 Y110.891 E6.41372
G1 X85.295 Y110.776 E6.41664
G1 X85.165 Y110.557 E6.42204
G1 X84.920 Y110.000 E6.43495
G1 X84.880 Y109.855 E6.43814
G1 X84.801 Y109.506 E6.44574
G1 X84.783 Y109.339 E6.44930
G1 X84.761 Y109.013 E6.45624
G1 X84.756 Y108.873 E6.45921
G1 X84.751 Y108.435 E6.46850
G1 X84.751 Y91.708 E6.82346
G1 X84.761 Y91.001 E6.83847
G1 X84.768 Y90.845 E6.84178
G1 F1500.00000 E5.84178
G0 F3000.00000 X86.461 Y91.229
G0 X88.751 Y91.751
G0 X88.779 Y91.779
G0 X88.821 Y91.821
G0 X88.751 Y91.751
;TYPE:WALL-INNER
G1 F1500.000 E6.84178
G1 F1800.00000 X111.249 Y91.751 E7.31920
G1 X111.249 Y108.249 E7.66930
G1 X106.749 Y108.249 E7.76479
G1 X106.749 Y104.499 E7.84437
G1 X102.249 Y104.499 E7.93986
G1 X102.249 Y108.249 E8.01944
G1 X97.751 Y108.249 E8.11489
G1 X97.751 Y104.499 E8.19447
G1 X93.251 Y104.499 E8.28996
G1 X93.251 Y108.249 E8.36954
G1 X88.751 Y108.249 E8.46503
G1 X88.751 Y91.751 E8.81513
G0 F3000.00000 X88.851 Y91.821
G0 X92.001 Y94.574
G1 F1800.000 X89.693 Y96.250 E8.87566
G1 X90.574 Y98.964 E8.93621
G1 X93.427 Y98.964 E8.99675
G1 X94.308 Y96.251 E9.05729
G1 X92.001 Y94.574 E9.11781
G0 F3000.00000 X106.097 Y96.221
G0 X106.192 Y96.251
G1 F1800.000 X107.073 Y98.964 E9.17834
G1 X109.926 Y98.964 E9.23888
G1 X110.808 Y96.250 E9.29944
G1 X108.499 Y94.574 E9.35999
G1 X106.192 Y96.251 E9.42051
G0 F3000.00000 X106.779 Y96.442
;TYPE:WALL-OUTER
G1 F1800.000 X107.436 Y98.464 E9.46563
G1 X109.563 Y98.464 E9.51076
G1 X110.220 Y96.441 E9.55590
G1 X108.499 Y95.192 E9.60102
G1 X106.779 Y96.442 E9.64614
G0 F3000.00000 X106.208 Y96.624
G0 X106.849 Y104.999
G0 X106.249 Y104.999
G1 F1800.000 X102.749 Y104.999 E9.72042
G1 X102.749 Y108.749 E9.79999
G1 X97.251 Y108.749 E9.91667
G1 X97.251 Y104.999 E9.99624
G1 X93.751 Y104.999 E10.07052
G1 X93.751 Y107.499 E10.12357
G1 X95.251 Y107.499 E10.15540
G1 X95.251 Y108.749 E10.18192
G1 X88.251 Y108.749 E10.33047
G1 X88.251 Y91.251 E10.70179
G1 X111.749 Y91.251 E11.20043
G1 X111.749 Y108.749 E11.57175
G1 X104.749 Y108.749 E11.72029
G1 X104.749 Y107.499 E11.74682
G1 X106.249 Y107.499 E11.77865
G1 X106.249 Y104.999 E11.83170
G0 F3000.00000 X106.849 Y104.999
G0 X106.777 Y104.471
G0 X93.634 Y98.649
G0 X93.064 Y98.464
G1 F1800.000 X93.721 Y96.442 E11.87682
G1 X92.001 Y95.192 E11.92194
G1 X90.280 Y96.441 E11.96706
G1 X90.937 Y98.464 E12.01220
G1 X93.064 Y98.464 E12.05734
G0 F3000.00000 X93.728 Y98.678
;TYPE:SKIN
G1 F1800.000 X102.049 Y106.999 E12.30706
G0 X102.137 Y107.087
G0 F3000.000 X102.049 Y106.292
G1 F1800.000 X93.901 Y98.144 E12.55158
G0 X93.813 Y98.056
G0 F3000.000 X94.075 Y97.611
G1 F1800.000 X102.049 Y105.585 E12.79089
G0 X102.137 Y105.673
G0 F3000.000 X102.049 Y104.878
G1 F1800.000 X94.248 Y97.077 E13.02500
G0 X94.160 Y96.989
G0 F3000.000 X94.422 Y96.543
G1 F1800.000 X102.176 Y104.298 E13.25771
G0 X102.264 Y104.386
G0 F3000.000 X102.884 Y104.298
G1 F1800.000 X90.536 Y91.950 E13.62828
G0 X90.448 Y91.862
G0 F3000.000 X89.829 Y91.950
G1 F1800.000 X92.746 Y94.867 E13.71583
G0 X92.834 Y94.955
G0 F3000.000 X91.708 Y94.537
G1 F1800.000 X89.122 Y91.950 E13.79345
G0 X89.034 Y91.862
G0 F3000.000 X88.951 Y92.486
G1 F1800.000 X91.299 Y94.835 E13.86393
G0 X91.387 Y94.923
G0 F3000.000 X90.889 Y95.132
G1 F1800.000 X88.951 Y93.193 E13.92210
G0 X88.863 Y93.105
G0 F3000.000 X88.951 Y93.900
G1 F1800.000 X90.479 Y95.429 E13.96797
G0 X90.567 Y95.517
G0 F3000.000 X90.069 Y95.726
G1 F1800.000 X88.951 Y94.608 E14.00153
G0 X88.863 Y94.520
G0 F3000.000 X88.951 Y95.315
G1 F1800.000 X89.660 Y96.024 E14.02280
G0 X89.748 Y96.112
G0 F3000.000 X89.630 Y96.701
G1 F1800.000 X88.951 Y96.022 E14.04318
G0 F3000.00000 X88.951 Y96.729
G1 F1800.000 X89.970 Y97.748 E14.07376
G0 X90.058 Y97.836
G0 F3000.000 X88.951 Y97.436
G1 F1800.000 X90.309 Y98.794 E14.11452
G0 X90.397 Y98.882
G0 F3000.000 X90.677 Y99.163
G1 F1800.000 X95.812 Y104.298 E14.26862
G0 X95.900 Y104.386
G0 F3000.000 X95.105 Y104.298
G1 F1800.000 X88.951 Y98.143 E14.45332
G0 X88.863 Y98.055
G0 F3000.000 X88.951 Y98.850
