;FLAVOR:RepRap
;TIME:1039
M190 S50.000000
M104 S235.000000
M109 S235.000000
G21 ;metric values
G90 ;absolute positioning
M82 ;set extruder to absolute mode
M107 ;start with the fan off
G28 X0 Y0 ;move X/Y to min endstops
G28 Z0 ;move Z to min endstops
G1 Z15.0 F9000 ;move the platform down 15mm
G92 E0 ;zero the extruded length
G1 F200 E3 ;extrude 3mm of feed stock
G92 E0 ;zero the extruded length again
G1 F9000
;Put printing message on LCD screen
M117 Printing...
;Generated with Cura_SteamEngine 2.1.0-
;LAYER_COUNT:59
;LAYER:0
M107
G0 F3000.000000 X85.125 Y83.384 Z0.300
G0 X83.920 Y85.349
;TYPE:SKIRT
G1 F1800.000 X83.950 Y85.253 E0.00213
G1 X83.988 Y85.143 E0.00460
G1 X84.116 Y84.800 E0.01237
G1 X84.147 Y84.735 E0.01390
G1 X84.233 Y84.565 E0.01794
G1 X84.378 Y84.297 E0.02441
G1 X84.389 Y84.279 E0.02486
G1 X84.428 Y84.219 E0.02638
G1 X84.497 Y84.120 E0.02894
G1 X84.725 Y83.808 E0.03714
G1 X84.730 Y83.802 E0.03730
G1 X84.784 Y83.740 E0.03905
G1 X84.856 Y83.662 E0.04130
G1 X85.125 Y83.384 E0.04951
G1 X85.192 Y83.326 E0.05139
G1 X85.269 Y83.263 E0.05350
G1 X85.569 Y83.028 E0.06159
G1 X85.582 Y83.018 E0.06194
G1 X85.672 Y82.960 E0.06421
G1 X85.747 Y82.914 E0.06608
G1 X86.064 Y82.730 E0.07385
G1 X86.087 Y82.718 E0.07440
G1 X86.191 Y82.669 E0.07684
G1 X86.251 Y82.642 E0.07824
G1 X86.594 Y82.501 E0.08611
G1 X86.605 Y82.497 E0.08636
G1 X86.711 Y82.464 E0.08871
G1 X86.785 Y82.442 E0.09035
G1 X87.164 Y82.344 E0.09866
G1 X87.190 Y82.340 E0.09922
G1 X87.558 Y82.298 E0.10708
G1 X87.800 Y82.278 E0.11223
G1 X89.070 Y82.251 E0.13919
G1 X94.866 Y82.251 E0.26218
G1 X96.188 Y82.256 E0.29024
G1 X96.907 Y82.251 E0.30549
G1 X103.366 Y82.251 E0.44256
G1 X104.688 Y82.256 E0.47061
G1 X105.407 Y82.251 E0.48587
G1 X111.293 Y82.251 E0.61077
G1 X111.683 Y82.257 E0.61905
G1 X112.567 Y82.299 E0.63783
G1 X112.579 Y82.301 E0.63809
G1 X112.591 Y82.302 E0.63835
G1 X112.698 Y82.321 E0.64065
G1 X112.755 Y82.332 E0.64188
G1 X113.148 Y82.419 E0.65042
G1 X113.243 Y82.449 E0.65254
G1 X113.358 Y82.489 E0.65512
G1 X113.700 Y82.617 E0.66287
G1 X113.766 Y82.648 E0.66442
G1 X113.911 Y82.721 E0.66786
G1 X114.192 Y82.873 E0.67464
G1 X114.222 Y82.890 E0.67538
G1 X114.276 Y82.925 E0.67674
G1 X114.381 Y82.998 E0.67945
G1 X114.691 Y83.224 E0.68760
G1 X114.761 Y83.285 E0.68957
G1 X114.837 Y83.355 E0.69176
G1 X115.116 Y83.626 E0.70001
G1 X115.158 Y83.673 E0.70135
G1 X115.238 Y83.770 E0.70402
G1 X115.470 Y84.066 E0.71200
G1 X115.483 Y84.083 E0.71245
G1 X115.536 Y84.165 E0.71452
G1 X115.579 Y84.234 E0.71625
G1 X115.771 Y84.565 E0.72437
G1 X115.781 Y84.584 E0.72483
G1 X115.829 Y84.684 E0.72718
G1 X115.859 Y84.752 E0.72876
G1 X115.997 Y85.087 E0.73645
G1 X116.002 Y85.101 E0.73676
G1 X116.030 Y85.187 E0.73868
G1 X116.054 Y85.269 E0.74049
G1 X116.156 Y85.663 E0.74913
G1 X116.161 Y85.691 E0.74973
G1 X116.203 Y86.059 E0.75759
G1 X116.223 Y86.301 E0.76275
G1 X116.250 Y87.571 E0.78970
G1 X116.250 Y103.792 E1.13392
G1 X116.244 Y104.182 E1.14220
G1 X116.202 Y105.066 E1.16098
G1 X116.200 Y105.078 E1.16124
G1 X116.200 Y105.080 E1.16128
G1 X116.183 Y105.183 E1.16350
G1 X116.169 Y105.254 E1.16503
G1 X116.082 Y105.647 E1.17357
G1 X116.055 Y105.731 E1.17545
G1 X116.012 Y105.857 E1.17827
G1 X115.884 Y106.199 E1.18602
G1 X115.853 Y106.265 E1.18757
G1 X115.780 Y106.410 E1.19101
G1 X115.633 Y106.683 E1.19759
G1 X115.623 Y106.701 E1.19803
G1 X115.614 Y106.716 E1.19840
G1 X115.572 Y106.781 E1.20004
G1 X115.503 Y106.880 E1.20260
G1 X115.276 Y107.191 E1.21077
G1 X115.230 Y107.244 E1.21226
G1 X113.403 Y109.403 E1.27228
G1 X111.638 Y111.613 E1.33230
G1 X109.936 Y113.871 E1.39230
G1 X108.586 Y115.767 E1.44169
G1 X108.277 Y116.190 E1.45281
G1 X108.216 Y116.260 E1.45478
G1 X108.146 Y116.336 E1.45697
G1 X107.875 Y116.615 E1.46523
G1 X107.823 Y116.661 E1.46670
G1 X107.731 Y116.737 E1.46923
G1 X107.431 Y116.972 E1.47732
G1 X107.418 Y116.982 E1.47767
G1 X107.336 Y117.035 E1.47974
G1 X107.267 Y117.078 E1.48147
G1 X106.936 Y117.270 E1.48959
G1 X106.923 Y117.277 E1.48990
G1 X106.817 Y117.328 E1.49240
G1 X106.749 Y117.358 E1.49397
G1 X106.406 Y117.499 E1.50184
G1 X106.402 Y117.500 E1.50193
G1 X106.398 Y117.502 E1.50202
G1 X106.289 Y117.536 E1.50445
G1 X106.215 Y117.558 E1.50609
G1 X105.836 Y117.656 E1.51439
G1 X105.810 Y117.660 E1.51495
G1 X105.442 Y117.702 E1.52281
G1 X105.200 Y117.722 E1.52796
G1 X103.930 Y117.749 E1.55492
G1 X95.707 Y117.749 E1.72942
G1 X95.317 Y117.743 E1.73769
G1 X94.432 Y117.701 E1.75650
G1 X94.433 Y117.701 E1.75652
G1 X94.421 Y117.699 E1.75678
G1 X94.409 Y117.698 E1.75703
G1 X94.302 Y117.679 E1.75934
G1 X94.245 Y117.668 E1.76057
G1 X93.852 Y117.581 E1.76911
G1 X93.757 Y117.551 E1.77122
G1 X93.642 Y117.511 E1.77381
G1 X93.300 Y117.383 E1.78156
G1 X93.223 Y117.347 E1.78336
G1 X93.085 Y117.277 E1.78665
G1 X92.808 Y117.127 E1.79333
G1 X92.781 Y117.112 E1.79399
G1 X92.776 Y117.109 E1.79411
G1 X92.709 Y117.065 E1.79581
G1 X92.610 Y116.996 E1.79837
G1 X92.309 Y116.776 E1.80628
G1 X92.239 Y116.715 E1.80825
G1 X92.163 Y116.645 E1.81045
G1 X91.884 Y116.374 E1.81870
G1 X91.830 Y116.313 E1.82043
G1 X91.762 Y116.230 E1.82270
G1 X91.521 Y115.922 E1.83100
G1 X91.428 Y115.789 E1.83445
G1 X89.781 Y113.490 E1.89446
G1 X88.069 Y111.239 E1.95447
G1 X86.294 Y109.037 E2.01449
G1 X84.892 Y107.388 E2.06042
G1 X84.755 Y107.222 E2.06499
G1 X84.527 Y106.930 E2.07285
G1 X84.517 Y106.917 E2.07320
G1 X84.450 Y106.813 E2.07583
G1 X84.414 Y106.754 E2.07729
G1 X84.229 Y106.435 E2.08512
G1 X84.219 Y106.416 E2.08557
G1 X84.170 Y106.312 E2.08801
G1 X84.141 Y106.248 E2.08951
G1 X84.000 Y105.904 E2.09739
G1 X83.998 Y105.899 E2.09751
G1 X83.996 Y105.893 E2.09764
G1 X83.958 Y105.773 E2.10031
G1 X83.941 Y105.714 E2.10162
G1 X83.843 Y105.335 E2.10992
G1 X83.839 Y105.309 E2.11048
G1 X83.796 Y104.927 E2.11864
G1 X83.777 Y104.699 E2.12350
G1 X83.750 Y103.429 E2.15045
G1 X83.750 Y87.208 E2.49467
G1 X83.756 Y86.818 E2.50295
G1 X83.798 Y85.933 E2.52175
G1 X83.800 Y85.920 E2.52203
G1 X83.801 Y85.910 E2.52224
G1 X83.820 Y85.801 E2.52459
G1 X83.831 Y85.746 E2.52578
G1 X83.919 Y85.352 E2.53435
G1 X83.919 Y85.349 E2.53441
G1 X83.920 Y85.349 E2.53443
G0 F3000.00000 X84.387 Y85.552
G1 F1800.000 X84.411 Y85.453 E2.53659
G1 X84.541 Y85.096 E2.54466
G1 X84.600 Y84.947 E2.54806
G1 X84.817 Y84.545 E2.55775
G1 X84.855 Y84.479 E2.55937
G1 X85.123 Y84.121 E2.56886
G1 X85.203 Y84.021 E2.57158
G1 X85.455 Y83.770 E2.57912
G1 X85.590 Y83.643 E2.58306
G1 X85.896 Y83.417 E2.59113
G1 X86.014 Y83.334 E2.59419
G1 X86.416 Y83.119 E2.60386
G1 X86.516 Y83.069 E2.60624
G1 X86.868 Y82.943 E2.61417
G1 X87.018 Y82.894 E2.61752
G1 X87.427 Y82.811 E2.62638
G1 X87.465 Y82.805 E2.62719
G1 X88.049 Y82.760 E2.63962
G1 X88.722 Y82.751 E2.65390
G1 X94.315 Y82.751 E2.77259
G1 X94.389 Y82.752 E2.77416
G1 X97.056 Y82.752 E2.83076
G1 X97.132 Y82.751 E2.83237
G1 X102.815 Y82.751 E2.95297
G1 X102.889 Y82.752 E2.95454
G1 X105.556 Y82.752 E3.01113
G1 X105.632 Y82.751 E3.01275
G1 X111.293 Y82.751 E3.13288
G1 X111.999 Y82.761 E3.14786
G1 X112.175 Y82.768 E3.15160
G1 X112.514 Y82.798 E3.15882
G1 X112.921 Y82.882 E3.16764
G1 X113.048 Y82.912 E3.17041
G1 X113.398 Y83.039 E3.17831
G1 X113.554 Y83.101 E3.18187
G1 X113.948 Y83.313 E3.19137
G1 X114.022 Y83.356 E3.19318
G1 X114.362 Y83.610 E3.20219
G1 X114.479 Y83.703 E3.20536
G1 X114.731 Y83.956 E3.21294
G1 X114.858 Y84.091 E3.21687
G1 X115.084 Y84.397 E3.22494
G1 X115.167 Y84.515 E3.22800
G1 X115.382 Y84.917 E3.23768
G1 X115.432 Y85.017 E3.24005
G1 X115.558 Y85.369 E3.24798
G1 X115.607 Y85.519 E3.25133
G1 X115.690 Y85.928 E3.26019
G1 X115.696 Y85.966 E3.26101
G1 X115.741 Y86.550 E3.27344
G1 X115.750 Y87.223 E3.28772
G1 X115.750 Y103.771 E3.63888
G1 X115.740 Y104.498 E3.65431
G1 X115.733 Y104.674 E3.65804
G1 X115.703 Y105.013 E3.66527
G1 X115.619 Y105.420 E3.67408
G1 X115.589 Y105.547 E3.67685
G1 X115.467 Y105.884 E3.68446
G1 X115.400 Y106.053 E3.68832
G1 X115.193 Y106.437 E3.69757
G1 X115.145 Y106.521 E3.69963
G1 X114.885 Y106.869 E3.70885
G1 X114.789 Y106.989 E3.71211
G1 X113.997 Y107.928 E3.73817
G1 X113.864 Y108.081 E3.74248
G1 X112.068 Y110.266 E3.80250
G1 X110.335 Y112.501 E3.86251
G1 X108.236 Y115.395 E3.93838
G1 X108.201 Y115.445 E3.93967
G1 X107.885 Y115.869 E3.95089
G1 X107.798 Y115.978 E3.95385
G1 X107.545 Y116.230 E3.96143
G1 X107.412 Y116.355 E3.96530
G1 X107.104 Y116.583 E3.97344
G1 X106.986 Y116.666 E3.97650
G1 X106.584 Y116.881 E3.98617
G1 X106.484 Y116.931 E3.98854
G1 X106.132 Y117.057 E3.99648
G1 X105.982 Y117.106 E3.99983
G1 X105.573 Y117.189 E4.00868
G1 X105.535 Y117.195 E4.00950
G1 X104.951 Y117.240 E4.02193
G1 X104.278 Y117.249 E4.03621
G1 X95.707 Y117.249 E4.21809
G1 X95.001 Y117.239 E4.23308
G1 X94.825 Y117.232 E4.23682
G1 X94.486 Y117.202 E4.24404
G1 X94.079 Y117.118 E4.25286
G1 X93.952 Y117.088 E4.25563
G1 X93.599 Y116.960 E4.26359
G1 X93.446 Y116.899 E4.26709
G1 X93.047 Y116.684 E4.27671
G1 X92.978 Y116.644 E4.27840
G1 X92.630 Y116.384 E4.28762
G1 X92.521 Y116.297 E4.29058
G1 X92.269 Y116.044 E4.29815
G1 X92.142 Y115.909 E4.30209
G1 X91.908 Y115.593 E4.31043
G1 X91.882 Y115.555 E4.31141
G1 X90.234 Y113.256 E4.37144
G1 X88.523 Y111.005 E4.43144
G1 X86.748 Y108.802 E4.49147
G1 X85.778 Y107.671 E4.52309
G1 X85.150 Y106.919 E4.54388
G1 X84.916 Y106.603 E4.55222
G1 X84.833 Y106.485 E4.55529
G1 X84.618 Y106.083 E4.56496
G1 X84.568 Y105.983 E4.56733
G1 X84.442 Y105.631 E4.57527
G1 X84.393 Y105.481 E4.57862
G1 X84.310 Y105.072 E4.58747
G1 X84.304 Y105.034 E4.58829
G1 X84.259 Y104.450 E4.60072
G1 X84.250 Y103.771 E4.61513
G1 X84.250 Y87.208 E4.96661
G1 X84.260 Y86.501 E4.98161
G1 X84.267 Y86.326 E4.98533
G1 X84.297 Y85.987 E4.99255
G1 X84.387 Y85.552 E5.00197
G0 F3000.00000 X84.767 Y86.345
G1 F1800.000 X84.767 Y86.343 E5.00202
G1 X84.800 Y85.993 E5.00948
G1 X84.801 Y85.988 E5.00959
G1 X84.834 Y85.830 E5.01301
G1 X84.915 Y85.512 E5.01997
G1 X84.920 Y85.498 E5.02029
G1 X84.978 Y85.344 E5.02378
G1 X85.110 Y85.038 E5.03085
G1 X85.118 Y85.023 E5.03121
G1 X85.199 Y84.882 E5.03467
G1 X85.379 Y84.597 E5.04182
G1 X85.382 Y84.593 E5.04192
G1 X85.483 Y84.467 E5.04535
G1 X85.703 Y84.216 E5.05243
G1 X85.832 Y84.099 E5.05613
G1 X86.093 Y83.881 E5.06335
G1 X86.107 Y83.871 E5.06371
G1 X86.222 Y83.795 E5.06664
G1 X86.442 Y83.665 E5.07206
G1 X86.999 Y83.420 E5.08497
G1 X87.144 Y83.380 E5.08816
G1 X87.493 Y83.301 E5.09576
G1 X87.660 Y83.283 E5.09932
G1 X87.986 Y83.261 E5.10626
G1 X88.126 Y83.256 E5.10923
G1 X88.564 Y83.251 E5.11852
G1 X94.873 Y83.251 E5.25240
G1 X96.892 Y83.254 E5.29525
G1 X97.139 Y83.251 E5.30049
G1 X103.373 Y83.251 E5.43278
G1 X105.392 Y83.254 E5.47563
G1 X105.639 Y83.251 E5.48087
G1 X111.293 Y83.251 E5.60085
G1 X111.999 Y83.261 E5.61583
G1 X112.133 Y83.267 E5.61868
G1 X112.158 Y83.268 E5.61921
G1 X112.504 Y83.300 E5.62658
G1 X112.507 Y83.301 E5.62665
G1 X112.509 Y83.301 E5.62669
G1 X112.671 Y83.335 E5.63021
G1 X112.989 Y83.416 E5.63717
G1 X113.002 Y83.421 E5.63746
G1 X113.157 Y83.479 E5.64098
G1 X113.463 Y83.611 E5.64805
G1 X113.473 Y83.616 E5.64829
G1 X113.619 Y83.700 E5.65186
G1 X113.898 Y83.876 E5.65886
G1 X113.904 Y83.880 E5.65901
G1 X114.034 Y83.984 E5.66255
G1 X114.285 Y84.204 E5.66963
G1 X114.402 Y84.333 E5.67332
G1 X114.615 Y84.588 E5.68037
G1 X114.627 Y84.604 E5.68080
G1 X114.705 Y84.722 E5.68380
G1 X114.836 Y84.943 E5.68925
G1 X115.081 Y85.498 E5.70213
G1 X115.118 Y85.632 E5.70508
G1 X115.199 Y85.988 E5.71282
G1 X115.218 Y86.161 E5.71652
G1 X115.240 Y86.487 E5.72345
G1 X115.245 Y86.627 E5.72642
G1 X115.250 Y87.065 E5.73572
G1 X115.250 Y103.792 E6.09068
G1 X115.240 Y104.498 E6.10566
G1 X115.234 Y104.632 E6.10851
G1 X115.233 Y104.654 E6.10897
G1 X115.201 Y105.003 E6.11641
G1 X115.200 Y105.006 E6.11648
G1 X115.200 Y105.007 E6.11650
G1 X115.166 Y105.170 E6.12003
G1 X115.085 Y105.488 E6.12700
G1 X115.080 Y105.501 E6.12729
G1 X115.023 Y105.652 E6.13072
G1 X114.890 Y105.962 E6.13788
G1 X114.885 Y105.972 E6.13811
G1 X114.801 Y106.118 E6.14169
G1 X114.619 Y106.406 E6.14892
G1 X114.621 Y106.404 E6.14898
G1 X114.429 Y106.643 E6.15548
G1 X114.418 Y106.657 E6.15586
G1 X112.893 Y108.448 E6.20578
G1 X111.121 Y110.653 E6.26581
G1 X109.412 Y112.907 E6.32583
G1 X108.465 Y114.250 E6.36070
G1 X108.451 Y114.240 E6.36107
G1 X107.621 Y115.404 E6.39141
G1 X107.517 Y115.533 E6.39492
G1 X107.297 Y115.784 E6.40201
G1 X107.296 Y115.784 E6.40203
G1 X107.168 Y115.901 E6.40571
G1 X106.907 Y116.119 E6.41292
G1 X106.900 Y116.124 E6.41311
G1 X106.896 Y116.127 E6.41321
G1 X106.778 Y116.205 E6.41621
G1 X106.558 Y116.335 E6.42164
G1 X106.001 Y116.580 E6.43455
G1 X105.856 Y116.620 E6.43774
G1 X105.507 Y116.699 E6.44533
G1 X105.340 Y116.717 E6.44890
G1 X105.014 Y116.739 E6.45583
G1 X104.874 Y116.744 E6.45881
G1 X104.436 Y116.749 E6.46810
G1 X95.707 Y116.749 E6.65334
G1 X95.001 Y116.739 E6.66832
G1 X94.867 Y116.733 E6.67117
G1 X94.842 Y116.732 E6.67170
G1 X94.496 Y116.700 E6.67907
G1 X94.492 Y116.699 E6.67916
G1 X94.329 Y116.665 E6.68269
G1 X94.011 Y116.584 E6.68965
G1 X93.998 Y116.579 E6.68995
G1 X93.843 Y116.521 E6.69346
G1 X93.537 Y116.389 E6.70053
G1 X93.527 Y116.384 E6.70077
G1 X93.381 Y116.300 E6.70435
G1 X93.096 Y116.120 E6.71150
G1 X93.093 Y116.118 E6.71158
G1 X92.966 Y116.016 E6.71503
G1 X92.712 Y115.793 E6.72220
G1 X92.589 Y115.657 E6.72610
G1 X92.380 Y115.406 E6.73303
G1 X92.368 Y115.390 E6.73345
G1 X92.064 Y114.955 E6.74471
G1 X90.410 Y112.660 E6.80474
G1 X88.692 Y110.414 E6.86475
G1 X86.912 Y108.216 E6.92477
G1 X85.842 Y106.959 E6.95980
G1 X85.380 Y106.406 E6.97509
G1 X85.369 Y106.391 E6.97549
G1 X85.294 Y106.277 E6.97838
G1 X85.164 Y106.057 E6.98380
G1 X84.919 Y105.500 E6.99672
G1 X84.879 Y105.355 E6.99991
G1 X84.800 Y105.006 E7.00750
G1 X84.782 Y104.839 E7.01107
G1 X84.760 Y104.513 E7.01800
G1 X84.755 Y104.373 E7.02097
G1 X84.750 Y103.935 E7.03027
G1 X84.750 Y87.208 E7.38523
G1 X84.760 Y86.501 E7.40023
G1 X84.767 Y86.345 E7.40354
G1 F1500.00000 E6.40354
G0 F3000.00000 X86.460 Y86.729
G0 X88.750 Y87.251
G0 X88.778 Y87.279
G0 X88.820 Y87.321
G0 X88.750 Y87.251
;TYPE:WALL-INNER
G1 F1500.000 E7.40354
G1 F1800.00000 X94.250 Y87.251 E7.52026
G1 X94.250 Y90.251 E7.58392
G1 X98.750 Y90.251 E7.67941
G1 X98.750 Y87.251 E7.74308
G1 X101.250 Y87.251 E7.79613
G1 X101.250 Y90.251 E7.85979
G1 X105.750 Y90.251 E7.95528
G1 X105.750 Y87.251 E8.01894
G1 X111.250 Y87.251 E8.13566
G1 X111.250 Y97.448 E8.35204
G1 X110.909 Y97.540 E8.35954
G1 X109.730 Y95.500 E8.40954
G1 X106.269 Y95.500 E8.48298
G1 X104.534 Y98.500 E8.55653
G1 X106.269 Y101.499 E8.63005
G1 X109.730 Y101.499 E8.70349
G1 X110.909 Y99.460 E8.75348
G1 X111.250 Y99.552 E8.76097
G1 X111.250 Y103.749 E8.85003
G1 X104.250 Y103.749 E8.99858
G1 X104.250 Y112.749 E9.18956
G1 X95.750 Y112.749 E9.36994
G1 X95.750 Y103.749 E9.56093
G1 X88.750 Y103.749 E9.70947
G1 X88.750 Y100.418 E9.78016
G1 X89.091 Y100.326 E9.78765
G1 X89.769 Y101.499 E9.81640
G1 X93.232 Y101.499 E9.88989
G1 X94.966 Y98.500 E9.96340
G1 X93.232 Y95.500 E10.03693
G1 X89.769 Y95.500 E10.11042
G1 X89.091 Y96.674 E10.13919
G1 X88.750 Y96.582 E10.14668
G1 X88.750 Y87.251 E10.34469
G0 F3000.00000 X88.250 Y86.751
;TYPE:WALL-OUTER
G1 F1800.000 X94.750 Y86.751 E10.48263
G1 X94.750 Y89.751 E10.54629
G1 X98.250 Y89.751 E10.62056
G1 X98.250 Y87.251 E10.67362
G1 X96.750 Y87.251 E10.70545
G1 X96.750 Y86.751 E10.71606
G1 X98.250 Y86.751 E10.74789
G1 X103.250 Y86.751 E10.85399
G1 X103.250 Y87.251 E10.86460
G1 X101.750 Y87.251 E10.89643
G1 X101.750 Y89.751 E10.94948
G1 X105.250 Y89.751 E11.02376
G1 X105.250 Y86.751 E11.08742
G1 X111.750 Y86.751 E11.22535
G1 X111.750 Y104.249 E11.59667
G1 X104.750 Y104.249 E11.74522
G1 X104.750 Y113.249 E11.93620
G1 X95.250 Y113.249 E12.13780
G1 X95.250 Y104.249 E12.32878
G1 X88.250 Y104.249 E12.47733
G1 X88.250 Y98.755 E12.59392
G1 X88.250 Y98.500 E12.59933
G1 X88.250 Y98.245 E12.60474
G1 X88.250 Y86.751 E12.84865
G0 F3000.00000 X88.850 Y87.321
G0 X89.539 Y95.700
G0 X90.057 Y96.000
G1 F1800.000 X88.740 Y98.280 E12.90452
G1 X88.613 Y98.500 E12.90917
G1 X88.740 Y98.720 E12.91383
G1 X90.057 Y100.999 E12.96968
G1 X92.944 Y100.999 E13.03095
G1 X94.388 Y98.500 E13.09219
G1 X92.944 Y96.000 E13.15346
G1 X90.057 Y96.000 E13.21472
G0 F3000.00000 X89.539 Y95.699
G0 X89.749 Y95.466
G0 X93.251 Y95.466
